!!!!SEGMENT: pl-cz--iii-555--001-005_raszek-waclaw--requiem-domine-jesu-christe.krn
!!!cenid: 17xx:1084
!!!COM: Raszek, Wacław
!!!COM-rismID: pe30020314
!!!CDT: <1848->1848
!!!CNT:
!!!OPR: Requiem
!!!OTL: Domine Jesu Christe
!!!OMV: 005
!!!PDT:
!!!AGN: Sacred; Requiem
!!!SMS-siglum: PL-CZ
!!!SMS-shelfmark: III-555
!!!SMS-shelfwork: 001-005 M
!!!SMS-variant:
!!!SMS-altvar:
!!!NIFC-rismSourceID: 300001055
!!!NIFC-islandoraID: pl-cz:38890
!!!URL-pdf-islandora: https://repozytorium.nifc.pl/islandora/object/pl-cz%3A38890/datastream/PDF/view
!!!URL-scan:
!!!ONB-nifc: UWAGA: części Requiem: Requiem, Kyrie, Dies irae, Qui Mariam, Domine Jesu Christe, Sanctus, Pleni sunt, Benedictus, Agnus Dei, Lux aeterna
!!!AIN: 1 alto 2 bass 2 clars 2 cor 1 fagot 1 soprn
!!!key: E-
**kern	**text	**dynam	**kern	**text	**kern	**text	**kern	**text	**kern	**dynam	**kern	**dynam	**kern	**dynam	**kern	**dynam	**kern	**dynam
*part9	*part9	*part9	*part8	*part8	*part7	*part7	*part6	*part6	*part5	*part5	*part4	*part4	*part3	*part3	*part2	*part2	*part1	*part1
*staff9	*staff9	*	*staff8	*staff8	*staff7	*staff7	*staff6	*staff6	*staff5	*	*staff4	*	*staff3	*	*staff2	*	*staff1	*
*IGcoro	*	*	*IGcoro	*	*IGcoro	*	*IGcoro	*	*IGacmp	*	*IGacmp	*	*IGacmp	*	*IGacmp	*	*IGacmp	*
*ICvox	*	*	*ICvox	*	*ICvox	*	*ICvox	*	*ICvox	*	*ICvox	*	*ICww	*	*ICww	*	*ICww	*
*Ibass	*	*	*Ibass	*	*Ialto	*	*Isoprn	*	*Icor	*	*Icor	*	*Ifagot	*	*Iclars	*	*Iclars	*
*I"Baſso.	*	*	*I"Tenore.	*	*I"Alto	*	*I"Canto	*	*I"Cornu IIdo in Dis.	*	*I"Corno Imo in dis	*	*I"Fagotto vel Violone	*	*I"Clarinetto 2do in B.	*	*I"Clarinetto Imo in B.	*
*I'B	*	*	*I'T	*	*I'A	*	*I'S	*	*I'cor 2 in E|b	*	*I'cor 1 in E|b	*	*I'fag	*	*I'cl 2	*	*I'cl 1	*
*clefF4	*	*	*clefC4	*	*clefC3	*	*clefC1	*	*clefG2	*	*clefG2	*	*clefF4	*	*clefG2	*	*clefG2	*
*	*	*	*	*	*	*	*	*	*ITrd5c9	*	*ITrd5c9	*	*	*	*ITrd1c2	*	*ITrd1c2	*
*k[b-a-e-]	*	*	*k[b-e-a-]	*	*k[b-e-a-]	*	*k[a-b-e-]	*	*k[b-e-a-]	*	*k[b-e-a-]	*	*k[e-a-b-]	*	*k[b-e-a-]	*	*k[b-e-a-]	*
*E-:	*	*	*E-:	*	*E-:	*	*E-:	*	*E-:	*	*E-:	*	*E-:	*	*E-:	*	*E-:	*
*M2/4	*	*	*M2/4	*	*M2/4	*	*M2/4	*	*M2/4	*	*M2/4	*	*M2/4	*	*M2/4	*	*M2/4	*
*2\right	*	*	*2\right	*	*2\right	*	*2\right	*	*2\right	*	*2\right	*	*2\right	*	*2\right	*	*2\right	*
=1	=1	=1	=1	=1	=1	=1	=1	=1	=1	=1	=1	=1	=1	=1	=1	=1	=1	=1
!	!	!	!	!	!	!	!	!	!	!	!	!	!	!	!	!	!LO:TX:t=P:problem=Brak tt. 1-50	!
!LO:TX:t=Offertorium	!	!	!LO:TX:t=Offertorium.:rj	!	!	!	!	!	!	!	!LO:TX:t=Offertorium:B:a:rj	!	!LO:TX:t=P:problem=mixed beam	!	!	!	!	!
!LO:TX:a:B:t=adagei:rj	!	!	!LO:TX:a:B:t=adagei	!	!LO:TX:t=Offertorium:rj	!	!	!	!LO:TX:t=Adagio.:rj	!	!LO:TX:a:B:t=adagio	!	!LO:TX:a:B:t=Domine adagio	!	!LO:TX:t=Adagio:rj	!	!	!
8.e-\	Do-	.	8.e-\	Do-	8.g\	Do-	8.ee-\L	Do-	8.e-\L	.	8.g\L	.	8.E-\L	.	8.g/L	.	2ryy	.
16E-\	-mi-	.	16e-\	-mi-	16g\	-mi-	16b-\Jk	.	16e-\Jk	.	16g\Jk	.	16EE-/Jk	.	16g/K	.	.	.
4E-\	-ne	.	4e-\	-ne	4g\	-ne	4b-\	-mi-	4e-\	.	4g\	.	4EE-/	.	8g/	.	.	.
.	.	.	.	.	.	.	.	.	.	.	.	.	.	.	8g/J	.	.	.
=2	=2	=2	=2	=2	=2	=2	=2	=2	=2	=2	=2	=2	=2	=2	=2	=2	=2	=2
4r	.	.	4r	.	4g\	JE-	4b-\	-ne	4r	.	4r	.	4r	.	4g/	.	2ryy	.
8E-\	JE-	.	8B-\	JE-	16a-\LL	-ſu	16cc\LL	Je-	8r	.	8r	.	8r	.	16a-/LL	.	.	.
.	.	.	.	.	16g\JJ	.	16b-\JJ	.	.	.	.	.	.	.	16g/	.	.	.
8E-\	-su	.	8B-\	-su	16f\LL	.	16a-\LL	-su	8e-\	.	8g\	.	8E-\	.	16f/	.	.	.
.	.	.	.	.	16e-\JJ	.	16g\JJ	.	.	.	.	.	.	.	16e-/JJ	.	.	.
=3	=3	=3	=3	=3	=3	=3	=3	=3	=3	=3	=3	=3	=3	=3	=3	=3	=3	=3
!	!	!	!	!	!LO:SIC:v:s=4en\	!	!	!	!LO:SIC:v:s=4g\:t=?	!	!	!	!	!	!	!	!	!
4B-\	Chriſ-	.	4B-\	Chriſ-	4e-\	chris-	4g\	Chriſ-	4e-\	.	4g\	.	4B-\	.	4eX/	.	2ryy	.
4BB-/	-te	.	4B-\	-te	4f\	-te	4a-\	-te	4f\	.	4a-\	.	4BB-/	.	4f/	.	.	.
=4	=4	=4	=4	=4	=4	=4	=4	=4	=4	=4	=4	=4	=4	=4	=4	=4	=4	=4
!	!	!	!	!	!	!	!	!	!	!	!	!	!LO:TX:t=P:problem=mixed beam	!	!	!	!	!
8.BB-/	Do-	.	8.d\	Do-	8.a-\	Do-	8.ff\	Do-	8.B-/L	.	8.f\L	.	8.B-\L	.	8.a-/L	.	2ryy	.
16BB-/	-mi-	.	16d\	-mi-	16f\	-mi-	16a-\	-mi-	16B-/Jk	.	16f\Jk	.	16BB-/Jk	.	16f/Jk	.	.	.
4BB-/	-ne	.	4d\	-ne	4f\	-ne	4a-\	-ne	4B-/	.	4f\	.	4BB-/	.	4f/	.	.	.
=5	=5	=5	=5	=5	=5	=5	=5	=5	=5	=5	=5	=5	=5	=5	=5	=5	=5	=5
*	*	*	*	*ij	*	*	*	*ij	*	*	*	*	*	*	*	*	*	*
4r	.	.	4r	.	4f\	JE-	4a-\	Je-	4r	.	4r	.	4r	.	4f/	.	2ryy	.
8BB-/	JE-	.	8B-\	Je-	16g\LL	-ſu	16b-\LL	-su	8r	.	8r	.	8r	.	16g/LL	.	.	.
.	.	.	.	.	16f\JJ	.	16a-\JJ	.	.	.	.	.	.	.	16f/	.	.	.
8BB-/	-su	.	8B-\	-su	16e-\LL	.	16g\LL	.	8B-/	.	8f\	.	8BB-/	.	16e-/	.	.	.
.	.	.	.	.	16d\JJ	.	16f\JJ	.	.	.	.	.	.	.	16d/JJ	.	.	.
=6	=6	=6	=6	=6	=6	=6	=6	=6	=6	=6	=6	=6	=6	=6	=6	=6	=6	=6
4E-\	Chriſ-	.	4B-\	Chris-	4d\	chris-	4f/	Chriſ-	4B-/	.	4f\	.	8E-\L	.	4d/	.	2ryy	.
.	.	.	.	.	.	.	.	.	.	.	.	.	8BB-\J	.	.	.	.	.
4E-\	-te	.	4B-\	-te	4e-\	-te	4g/	-te	4e-\	.	4g\	.	4EE-/	.	4e-/	.	.	.
*	*	*	*	*Xij	*	*	*	*Xij	*	*	*	*	*	*	*	*	*	*
=7	=7	=7	=7	=7	=7	=7	=7	=7	=7	=7	=7	=7	=7	=7	=7	=7	=7	=7
2E-\	Rex	.	2B-\	Rex	2g\	Rex	2ee-\	Rex	8r	.	8r	.	8r	.	2g/	.	2ryy	.
.	.	.	.	.	.	.	.	.	8e-\L	.	8g\L	.	8E-\L	.	.	.	.	.
.	.	.	.	.	.	.	.	.	8e-\	.	8g\	.	8G\	.	.	.	.	.
.	.	.	.	.	.	.	.	.	8e-\J	.	8g\J	.	8B-\J	.	.	.	.	.
=8	=8	=8	=8	=8	=8	=8	=8	=8	=8	=8	=8	=8	=8	=8	=8	=8	=8	=8
4.G\	Glo-	.	4.B-\	glo-	4.g\	Glo-	4.ee-\	glo-	8r	.	8r	.	8e-\L	.	4.g/	.	2ryy	.
.	.	.	.	.	.	.	.	.	8e-\	.	8g\	.	8B-\	.	.	.	.	.
.	.	.	.	.	.	.	.	.	8e-\L	.	8g\L	.	8G\	.	.	.	.	.
8E-\	-ri-	.	8B-\	-ri-	8g\	-ri-	8ee-\	-ri-	16g\L	.	16b-\L	.	8E-\J	.	8g/	.	.	.
.	.	.	.	.	.	.	.	.	16e-\JJ	.	16g\JJ	.	.	.	.	.	.	.
=9	=9	=9	=9	=9	=9	=9	=9	=9	=9	=9	=9	=9	=9	=9	=9	=9	=9	=9
!	!	!	!	!	!	!	!	!	!	!	!	!	!LO:TX:t=P:problem=mixed beam	!	!	!	!	!
4BB-/	-e	.	4B-\	-a	4f\	-e	4dd\	-ae	8B-/L	.	8f\L	.	8BB-/L	.	4f/	.	2ryy	.
.	.	.	.	.	.	.	.	.	8B-/J	.	8f\J	.	8B-\J	.	.	.	.	.
4r	.	.	4r	.	4r	.	4r	.	4B-/	.	4f\	.	4BB-/	.	4r	.	.	.
=10	=10	=10	=10	=10	=10	=10	=10	=10	=10	=10	=10	=10	=10	=10	=10	=10	=10	=10
!	!	!	!	!	!LO:TX:a:t=1	!	!LO:LB:g=original	!	!	!	!LO:LB:g=original	!	!LO:TX:t=P:problem=mixed beam	!	!	!	!	!
8.B-\	glo-	.	2r	.	2r	.	8.b-\	Do-	8.BB-/L	.	8.B-/L	.	8.B-\L	.	8.d/L	.	2ryy	.
16BB-/	-ri-	.	.	.	.	.	16b-\	-mi-	16BB-/Jk	.	16B-/Jk	.	16BB-/Jk	.	16d/Jk	.	.	.
4BB-/	-ae	.	.	.	.	.	4b-\	-ne	4BB-/	.	4B-/	.	4BB-/	.	4d/	.	.	.
=11	=11	=11	=11	=11	=11	=11	=11	=11	=11	=11	=11	=11	=11	=11	=11	=11	=11	=11
!LO:TX:a:t=2	!	!	!	!	!LO:TX:t=P:problem=brak tt 11-16	!	!LO:TX:a:t=2	!	!	!	!	!	!	!	!	!	!	!
1r	.	.	4d\	Do-	2ryy	.	1r	.	4r	.	4r	.	4r	.	4dd\	.	2ryy	.
.	.	.	16e-\LL	-mi-	.	.	.	.	8r	.	8r	.	8r	.	16ee-\LL	.	.	.
.	.	.	16d\JJ	.	.	.	.	.	.	.	.	.	.	.	16dd\	.	.	.
.	.	.	16c\LL	-ne	.	.	.	.	8B-/	.	8B-/	.	8BB-/	.	16cc\	.	.	.
.	.	.	16B-\JJ	.	.	.	.	.	.	.	.	.	.	.	16b-\JJ	.	.	.
=12	=12	=12	=12	=12	=12	=12	=12	=12	=12	=12	=12	=12	=12	=12	=12	=12	=12	=12
!	!	!	!LO:LB:g=original	!	!	!	!	!	!LO:LB:g=original	!	!	!	!LO:TX:t=P:problem=mixed beam	!	!	!	!	!
.	.	.	4B-\	libe-	2ryy	.	.	.	8.f\L	.	8.f\L	.	8F\L	.	4b-\	.	2ryy	.
.	.	.	.	.	.	.	.	.	.	.	.	.	8FF/J	.	.	.	.	.
.	.	.	.	.	.	.	.	.	16f\Jk	.	16f\Jk	.	.	.	.	.	.	.
.	.	.	4c\	-ra	.	.	.	.	4f\	.	4f\	.	16F\LL	.	4cc\	.	.	.
.	.	.	.	.	.	.	.	.	.	.	.	.	16C\	.	.	.	.	.
!	!	!	!	!	!	!	!	!	!	!	!	!	!LO:SIC:v:s=16AAn\	!	!	!	!	!
.	.	.	.	.	.	.	.	.	.	.	.	.	16AA-\	.	.	.	.	.
.	.	.	.	.	.	.	.	.	.	.	.	.	16C\JJ	.	.	.	.	.
=13	=13	=13	=13	=13	=13	=13	=13	=13	=13	=13	=13	=13	=13	=13	=13	=13	=13	=13
!	!	!	!	!	!	!	!LO:TX:t=P:problem=brak tt. 13-15	!	!	!	!	!	!LO:TX:t=P:problem=mixed beam	!	!LO:TX:a:t=1	!	!	!
8.F\	Li-	.	2r	.	2ryy	.	2ryy	.	8.f\L	.	8.f\L	.	8.FF/L	.	2r	.	2ryy	.
!	!	!	!	!	!	!	!	!	!	!	!	!	!LO:TX:t=P:problem=belka 16 u dołu	!	!	!	!	!
16F\	-be-	.	.	.	.	.	.	.	16f\Jk	.	16f\Jk	.	16F\Jk	.	.	.	.	.
4F\	-ra	.	.	.	.	.	.	.	4f\	.	4f\	.	4F\	.	.	.	.	.
=14	=14	=14	=14	=14	=14	=14	=14	=14	=14	=14	=14	=14	=14	=14	=14	=14	=14	=14
!LO:LB:g=original	!	!	!	!	!	!	!	!	!	!	!	!	!	!	!	!	!	!
!LO:TX:a:t=2	!	!	!	!	!	!	!	!	!	!	!	!	!LO:LB:g=original	!	!	!	!	!
1r	.	.	4c\	a-	2ryy	.	2ryy	.	4r	.	4r	.	4r	.	4cc\	.	2ryy	.
.	.	.	16d\LL	-ni-	.	.	.	.	8r	.	8r	.	8r	.	16dd\LL	.	.	.
.	.	.	16c\JJ	.	.	.	.	.	.	.	.	.	.	.	16cc\	.	.	.
.	.	.	16B-\LL	-mas	.	.	.	.	8f\	.	8f\	.	8F\	.	16b-\	.	.	.
.	.	.	16An\JJ	.	.	.	.	.	.	.	.	.	.	.	16a\JJ	.	.	.
=15	=15	=15	=15	=15	=15	=15	=15	=15	=15	=15	=15	=15	=15	=15	=15	=15	=15	=15
!	!	!	!LO:SIC:v:s=4An\	!	!	!	!	!	!	!	!	!	!	!	!LO:SIC:v:s=4an\	!	!	!
.	.	.	4A-\	o-	2ryy	.	2ryy	.	8B-/L	.	8f\L	.	8B-\L	.	4a-\	.	2ryy	.
.	.	.	.	.	.	.	.	.	8B-/J	.	8f\J	.	8F\J	.	.	.	.	.
.	.	.	4B-\	.	.	.	.	.	4B-/	.	4f\	.	16B-\LL	.	4b-\	.	.	.
.	.	.	.	.	.	.	.	.	.	.	.	.	16F\	.	.	.	.	.
.	.	.	.	.	.	.	.	.	.	.	.	.	16D\	.	.	.	.	.
.	.	.	.	.	.	.	.	.	.	.	.	.	16F\JJ	.	.	.	.	.
=16	=16	=16	=16	=16	=16	=16	=16	=16	=16	=16	=16	=16	=16	=16	=16	=16	=16	=16
!	!	!	!	!	!	!	!	!	!	!LO:DY:a:t=fp.	!	!LO:DY:a:t=fp&colon;	!	!LO:DY:a	!LO:LB:g=original	!LO:DY:a:t=fpi	!	!
4.D\	a-	.	4.B-\	-mni-	2ryy	.	4.a-X\	Li-	8B-/L	fp	8f\L	fp	8BB-/L	f	8a-X/L	fp	2ryy	.
.	.	.	.	.	.	.	.	.	8B-/	.	8f\	.	8BB-/	p	8f/	.	.	.
.	.	.	.	.	.	.	.	.	8B-/	.	8f\	.	8BB-/	.	8f/	.	.	.
8D\	-ni-	.	8B-\	-um	.	.	8a-\	-be-	8B-/J	.	8f\J	.	8BB-/J	.	8f/J	.	.	.
=17	=17	=17	=17	=17	=17	=17	=17	=17	=17	=17	=17	=17	=17	=17	=17	=17	=17	=17
!	!	!	!	!	!	!	!	!	!	!LO:DY:a:t=fp.	!	!LO:DY:a:t=fp&colon;	!	!LO:DY:a:rj	!	!LO:DY:a:t=fpi	!	!
2E-\	-maſ	.	2B-\	fi-	2e-\	Libera	2g\	-ra	8e-\L	fp	8g\L	fp	8E-\L	f	8g/L	fp	2ryy	.
.	.	.	.	.	.	.	.	.	8e-\	.	8g\	.	8E-\	p	8e-/	.	.	.
.	.	.	.	.	.	.	.	.	8e-\	.	8g\	.	8E-\	.	8e-/	.	.	.
.	.	.	.	.	.	.	.	.	8e-\J	.	8g\J	.	8E-\J	.	8e-/J	.	.	.
=18	=18	=18	=18	=18	=18	=18	=18	=18	=18	=18	=18	=18	=18	=18	=18	=18	=18	=18
!	!	!	!	!	!	!	!	!	!	!LO:DY:a:t=fp.	!	!LO:DY:a:t=fp&colon;	!	!LO:DY:a:rj	!	!LO:DY:a:t=fpi	!	!
4.D\	Om-	.	4.B-\	-de-	4.f\	a-	4.a-\	a-	8B-/L	fp	8f\L	fp	8BB-/L	f	8a-/L	f	2ryy	.
.	.	.	.	.	.	.	.	.	8B-/	.	8f\	.	8BB-/	p	8f/	.	.	.
.	.	.	.	.	.	.	.	.	8B-/	.	8f\	.	8BB-/	.	8f/	.	.	.
8D\	-ni-	.	8B-\	-li-	8f\	-ni-	8a-\	-ni-	8B-/J	.	8f\J	.	8BB-/J	.	8f/J	.	.	.
=19	=19	=19	=19	=19	=19	=19	=19	=19	=19	=19	=19	=19	=19	=19	=19	=19	=19	=19
!	!	!	!	!	!	!	!	!	!	!LO:DY:a:t=fp.	!	!LO:DY:a:t=fp&colon;	!	!LO:DY:a:rj	!	!LO:DY:a:t=fpi	!	!
2E-\	-um	.	2B-\	-um	2e-\	-mas	2g\	-mas	8e-\L	fp	8g\L	fp	8E-\L	f	8g/L	fp	2ryy	.
.	.	.	.	.	.	.	.	.	8e-\	.	8g\	.	8E-\	p	8e-/	.	.	.
.	.	.	.	.	.	.	.	.	8e-\	.	8g\	.	8E-\	.	8e-/	.	.	.
.	.	.	.	.	.	.	.	.	8e-\J	.	8g\J	.	8E-\J	.	8e-/J	.	.	.
=20	=20	=20	=20	=20	=20	=20	=20	=20	=20	=20	=20	=20	=20	=20	=20!|:	=20	=20	=20
!	!	!	!	!	!	!	!	!	!	!LO:DY:a:t=fp.	!	!LO:DY:a:t=fp&colon;	!	!LO:DY:a:rj	!	!LO:DY:a:t=fpi	!	!
4.En\	fi-	.	4.c\	om-	4.g\	Om-	4.b-\	Om-	8g\L	fp	8g\L	fp	8C/L	f	8b-\L	fp	2ryy	.
.	.	.	.	.	.	.	.	.	8g\	.	8g\	.	8C/	p	8g\	.	.	.
.	.	.	.	.	.	.	.	.	8g\	.	8g\	.	8C/	.	8g\	.	.	.
8E\	-de-	.	8c\	-ni-	8g\	-ni-	8b-\	-ni-	8g\J	.	8g\J	.	8C/J	.	8g\J	.	.	.
=21	=21	=21	=21	=21	=21	=21	=21	=21	=21	=21	=21	=21	=21	=21	=21	=21	=21	=21
!	!	!	!	!	!	!	!	!	!	!LO:DY:a:t=fp.	!	!LO:DY:a:t=fp&colon;	!	!LO:DY:a	!	!LO:DY:a:t=fpi	!	!
4F\	-li-	.	4.c\	-um	4.f\	-um	4.an\	-um	8f\L	fp	8f\L	fp	8F\L	f	8a\L	fp	2ryy	.
.	.	.	.	.	.	.	.	.	8f\	.	8f\	.	8F\	p	8f\	.	.	.
4F\	-um	.	.	.	.	.	.	.	8f\	.	8f\	.	8F\	.	8f\	.	.	.
.	.	.	8c\	fi-	8f\	fi-	8a\	fi-	8f\J	.	8f\J	.	8F\J	.	8f\J	.	.	.
=22	=22	=22	=22	=22	=22	=22	=22	=22	=22	=22	=22	=22	=22	=22	=22:|!	=22	=22	=22
!LO:SIC:v:s=4.En\	!	!	!	!	!	!	!	!	!	!LO:DY:a:t=fp.	!LO:LB:g=original	!LO:DY:a:t=fp&colon;	!	!LO:DY:b	!LO:TX:t=P:problem=takty 22 i 23 zapisane repetycją	!LO:DY:a:t=fpi	!	!
4.E-\	Om-	.	4.c\	-de-	4.g\	-de-	4.b-\	-de-	8g\L	fp	8g\L	fp	8C/L	f	8b-\Lyy	fp	2ryy	.
.	.	.	.	.	.	.	.	.	8g\	.	8g\	.	8C/	p	8g\yy	.	.	.
.	.	.	.	.	.	.	.	.	8g\	.	8g\	.	8C/	.	8g\yy	.	.	.
!LO:SIC:v:s=8E\	!	!	!	!	!	!	!	!	!	!	!	!	!	!	!	!	!	!
8E-\	-ni-	.	8c\	-li-	8g\	-li-	8b-\	-li-	8g\J	.	8g\J	.	8C/J	.	(y8g\Jyy	.	.	.
=23	=23	=23	=23	=23	=23	=23	=23	=23	=23	=23	=23	=23	=23	=23	=23	=23	=23	=23
*	*	*	*	*	*	*	*	*	*	*	*tremolo	*	*	*	*	*	*	*
!	!	!	!	!	!	!	!LO:SIC:v:s=2an	!	!	!LO:DY:a:t=fp.	!	!LO:DY:a	!	!LO:DY:a:rj	!	!LO:DY:a:t=fpi	!	!
2F\	-um	.	2c\	-um	2f\	-um	2a-\	-um	8f\L	fp	8f\L	fp	8F\L	f	8a\L)yy	fp	2ryy	.
.	.	.	.	.	.	.	.	.	8f\	.	8f\	.	8F\	p	8f\yy	.	.	.
.	.	.	.	.	.	.	.	.	8f\	.	8f\	.	8F\	.	8f\yy	.	.	.
.	.	.	.	.	.	.	.	.	8f\J	.	8f\J	.	8F\J	.	8f\Jyy	.	.	.
=24	=24	=24	=24	=24	=24	=24	=24	=24	=24	=24	=24	=24	=24	=24	=24!|:	=24	=24	=24
!	!	!	!	!	!	!	!	!	!	!LO:DY:a:t=fp.	!	!LO:DY:a	!LO:TX:t=P:problem=mixed beam	!LO:DY:a:rj	!	!LO:DY:a:t=fpi	!	!
4.An\	fi-	.	4.c\	om-	4.f\	Om-	4.ee-\	O-	8f\L	fp	8f\L	fp	8F\L	f	8ee-\L	fp	2ryy	.
.	.	.	.	.	.	.	.	.	8f\	.	8f\	.	8FF/	p	8cc\	.	.	.
.	.	.	.	.	.	.	.	.	8f\	.	8f\	.	8FF/	.	8cc\	.	.	.
8A\	-de-	.	8c\	-ni-	8f\	-ni-	8ee-\	-mni-	8f\J	.	8f\J	.	8FF/J	.	8cc\J	.	.	.
=25	=25	=25	=25	=25	=25	=25	=25	=25	=25	=25	=25	=25	=25	=25	=25	=25	=25	=25
!	!	!	!	!	!	!	!	!	!LO:LB:g=original	!LO:DY:a:t=fp.	!	!LO:DY:a:t=fp&colon;	!	!LO:DY:a:rj	!	!LO:DY:a:t=fpi	!	!
4.B-\	-li-	.	4.B-\	.	4.f\	-um	4.dd\	-um	8B-/L	fp	8f\L	fp	8BB-/L	f	8dd\L	fp	2ryy	.
.	.	.	.	.	.	.	.	.	8B-/	.	8f\	.	8BB-/	p	8b-\	.	.	.
.	.	.	.	.	.	.	.	.	8B-/	.	8f\	.	8BB-/	.	8b-\	.	.	.
8B-\	-um	.	8B-\	-um	8f\	fi-	8dd\	fi-	8B-/J	.	8f\J	.	8BB-/J	.	8b-\J	.	.	.
*	*	*	*	*	*	*	*	*	*	*	*Xtremolo	*	*	*	*	*	*	*
=26	=26	=26	=26	=26	=26	=26	=26	=26	=26	=26	=26	=26	=26	=26	=26:|!	=26	=26	=26
!	!	!	!LO:LB:g=original	!	!	!	!	!	!	!LO:DY:a:t=fp.	!	!LO:DY:a:t=fp&colon;	!LO:TX:t=P:problem=mixed beam	!LO:DY:rj	!LO:TX:t=P:problem=takty 26 i 27 zapisane repetycją	!LO:DY:a:t=fpi	!	!
4.An\	De	.	4.c\	fi-	4.f\	-de-	4.ee-\	-de-	8f\L	fp	8f\L	fp	8FF/L	f	8ee-\Lyy	fp	2ryy	.
.	.	.	.	.	.	.	.	.	8f\	.	8f\	.	8F\	p	8cc\yy	.	.	.
.	.	.	.	.	.	.	.	.	8f\	.	8f\	.	8F\	.	8cc\yy	.	.	.
8A\	fun-	.	8c\	-de-	8f\	-li-	8ee-\	-li-	8f\J	.	8f\J	.	8F\J	.	(y8cc\Jyy	.	.	.
=27	=27	=27	=27	=27	=27	=27	=27	=27	=27	=27	=27	=27	=27	=27	=27	=27	=27	=27
*	*	*	*	*	*	*	*	*	*	*	*tremolo	*	*	*	*	*	*	*
!	!	!	!	!	!	!	!	!	!	!LO:DY:a:t=fp.	!	!LO:DY:a	!LO:TX:t=P:problem=mixed beam	!	!	!LO:DY:a:t=fpi	!	!
4.B-\	-cto-	.	4.B-\	-li-	4.f\	-um	4.dd\	-um	8B-/L	fp	8f\L	fp	8BB-/L	f	8dd\L)yy	f	2ryy	.
.	.	.	.	.	.	.	.	.	8B-/	.	8f\	.	8B-\	.	8b-\yy	.	.	.
.	.	.	.	.	.	.	.	.	8B-/	.	8f\	.	8BB-/	p	8b-\yy	.	.	.
*	*	*	*	*	*	*	*	*ij	*	*	*	*	*	*	*	*	*	*
8BB-/	.	.	8B-\	-um	8f\	de-	8dd\	fi-	8B-/J	.	8f\J	.	8BB-/J	.	8b-\Jyy	.	.	.
=28	=28	=28	=28	=28	=28	=28	=28	=28	=28	=28	=28	=28	=28	=28	=28	=28	=28	=28
!	!	!	!	!	!	!	!LO:LB:g=original	!	!LO:TX:t=P:problem=mixed beam	!	!	!LO:DY:a:rj	!LO:LB:g=original	!	!	!LO:DY:a:t=fpi	!	!
4.E-\	.	.	4.B-\	om-	4.g\	-fun-	4.cc\	-de-	8e-\L	.	8g\L	fp	8E-\L	.	8b-\L	f	2ryy	.
.	.	.	.	.	.	.	.	.	8e-\	.	8g\	.	8E-\	.	8b-\	.	.	.
.	.	.	.	.	.	.	.	.	8G/	.	8g\	.	8En\	.	8b-\	.	.	.
8En\	.	.	8B-\	-ni-	8g\	-cto-	8cc\	-li-	8G/J	.	8g\J	.	8E\J	.	8b-\J	.	.	.
*	*	*	*	*	*	*	*	*	*	*	*Xtremolo	*	*	*	*	*	*	*
=29	=29	=29	=29	=29	=29	=29	=29	=29	=29	=29	=29	=29	=29	=29	=29	=29	=29	=29
4F\	-rum	.	4B-\	-um	4f\	-rum	4dd\	-um	4B-/	.	4f\	.	4F\	.	4b-\	.	2ryy	.
*	*	*	*	*	*	*	*	*Xij	*	*	*	*	*	*	*	*	*	*
4r	.	.	4r	.	4r	.	4r	.	4r	.	4r	.	4r	.	16b-\LL	.	.	.
.	.	.	.	.	.	.	.	.	.	.	.	.	.	.	16cc\	.	.	.
.	.	.	.	.	.	.	.	.	.	.	.	.	.	.	16dd\	.	.	.
.	.	.	.	.	.	.	.	.	.	.	.	.	.	.	16ee-\JJ	.	.	.
=30	=30	=30	=30	=30	=30	=30	=30	=30	=30	=30	=30	=30	=30	=30	=30	=30	=30	=30
!LO:LB:g=original	!	!	!	!	!	!	!	!	!	!	!	!	!	!	!	!	!	!
!LO:TX:a:t=2	!	!	!LO:TX:a:t=2	!	!LO:TX:a:t=2	!	!LO:TX:a:t=2	!	!	!	!LO:TX:a:t=1	!	!LO:TX:a:t=1	!	!	!	!	!
1r	.	.	1r	.	1r	.	1r	.	2r	.	2r	.	2r	.	16dd\LL	.	2ryy	.
.	.	.	.	.	.	.	.	.	.	.	.	.	.	.	16cc\	.	.	.
.	.	.	.	.	.	.	.	.	.	.	.	.	.	.	16cc\	.	.	.
.	.	.	.	.	.	.	.	.	.	.	.	.	.	.	16b-\JJ	.	.	.
.	.	.	.	.	.	.	.	.	.	.	.	.	.	.	16b-\LL	.	.	.
.	.	.	.	.	.	.	.	.	.	.	.	.	.	.	16cc\	.	.	.
.	.	.	.	.	.	.	.	.	.	.	.	.	.	.	16cc\	.	.	.
.	.	.	.	.	.	.	.	.	.	.	.	.	.	.	16dd\JJ	.	.	.
=31	=31	=31	=31	=31	=31	=31	=31	=31	=31	=31	=31	=31	=31	=31	=31	=31	=31	=31
.	.	.	.	.	.	.	.	.	4e-\	.	4g\	.	4E-\	.	4ee-\	.	2ryy	.
.	.	.	.	.	.	.	.	.	8r	.	8r	.	8r	.	8r	.	.	.
.	.	.	.	.	.	.	.	.	8e-\	.	8g\	.	8E-\	.	8g/	.	.	.
=32	=32	=32	=32	=32	=32	=32	=32	=32	=32	=32	=32	=32	=32	=32	=32	=32	=32	=32
!	!	!	!	!	!	!	!	!	!	!	!	!	!LO:TX:t=P:problem=mixed beam	!	!LO:LB:g=original	!	!	!
8D\	De	.	8B-\	De	8f\	De-	8ff\	De	8B-/L	.	8f\L	.	8D\L	.	8b-\L	.	2ryy	.
8E-X\	fun-	.	8c\	.	8e-\	-fun-	16gg\LL	fun-	8e-/J	.	8g\	.	8E-\	.	16b-\L	.	.	.
.	.	.	.	.	.	.	16ee-\JJ	.	.	.	.	.	.	.	16cc\JJ	.	.	.
!	!	!	!	!	!LO:LB:g=original	!	!	!	!	!	!	!	!	!	!	!	!	!
4F\	-cto-	.	8B-\L	pe-	4f\	-cto-	8dd\L	-cto-	8f\L	.	8f\	.	8F\	.	8b-\L	.	.	.
!	!	!	!LO:SIC:v:s=8An\J	!	!	!	!	!	!	!	!	!	!	!	!	!	!	!
.	.	.	8A-\J	.	.	.	8cc\J	.	8f\J	.	8f\J	.	8FF/J	.	8a\J	.	.	.
=33	=33	=33	=33	=33	=33	=33	=33	=33	=33	=33	=33	=33	=33	=33	=33	=33	=33	=33
!	!	!	!	!	!	!	!	!	!	!	!	!	!LO:TX:t=P:problem=mixed beam	!	!	!	!	!
4BB-/	-rum	.	4B-\	-nis	4f\	-rum	4b-\	-rum	4B-/	.	4f\	.	8BB-/L	.	4b-\	.	2ryy	.
.	.	.	.	.	.	.	.	.	.	.	.	.	8B-\J	.	.	.	.	.
4r	.	.	4r	.	4r	.	4r	.	4r	.	4r	.	4r	.	16b-\LL	.	.	.
.	.	.	.	.	.	.	.	.	.	.	.	.	.	.	16cc\	.	.	.
.	.	.	.	.	.	.	.	.	.	.	.	.	.	.	16cc\	.	.	.
.	.	.	.	.	.	.	.	.	.	.	.	.	.	.	16dd\JJ	.	.	.
=34	=34	=34	=34	=34	=34	=34	=34	=34	=34	=34	=34	=34	=34	=34	=34	=34	=34	=34
!LO:TX:a:t=2	!	!	!LO:TX:a:t=2	!	!LO:TX:a:t=2	!	!LO:TX:a:t=2	!	!	!	!	!	!	!	!	!	!	!
1r	.	.	1r	.	1r	.	1r	.	4B-/	.	4B-/	.	4BB-/	.	16dd\LL	.	2ryy	.
.	.	.	.	.	.	.	.	.	.	.	.	.	.	.	16cc\	.	.	.
.	.	.	.	.	.	.	.	.	.	.	.	.	.	.	16cc\	.	.	.
.	.	.	.	.	.	.	.	.	.	.	.	.	.	.	16b-\JJ	.	.	.
.	.	.	.	.	.	.	.	.	4r	.	4r	.	4r	.	16b-\LL	.	.	.
.	.	.	.	.	.	.	.	.	.	.	.	.	.	.	16cc\	.	.	.
.	.	.	.	.	.	.	.	.	.	.	.	.	.	.	16cc\	.	.	.
.	.	.	.	.	.	.	.	.	.	.	.	.	.	.	16dd\JJ	.	.	.
=35	=35	=35	=35	=35	=35	=35	=35	=35	=35	=35	=35	=35	=35	=35	=35	=35	=35	=35
.	.	.	.	.	.	.	.	.	4e-\	.	4g\	.	4E-\	.	4b-\	.	2ryy	.
.	.	.	.	.	.	.	.	.	8r	.	8r	.	8r	.	8g/L	.	.	.
.	.	.	.	.	.	.	.	.	8e-\	.	8g\	.	8E-\	.	8g/J	.	.	.
=36	=36	=36	=36	=36	=36	=36	=36	=36	=36	=36	=36	=36	=36	=36	=36	=36	=36	=36
*	*ij	*	*	*	*	*ij	*	*ij	*	*	*	*	*	*	*	*	*	*
!	!	!	!	!	!	!	!	!	!	!	!	!	!LO:TX:t=P:problem=mixed beam	!	!	!	!	!
8D\	De	.	8B-\	De	8f\	De	8ff\	De	8B-/L	.	8f\L	.	8D\L	.	8b-\L	.	2ryy	.
8E-\	fun-	.	8c\	.	8e-\	fun-	16gg\LL	fun-	8e-/J	.	8g\	.	8E-\	.	8b-\	.	.	.
.	.	.	.	.	.	.	16ee-\JJ	.	.	.	.	.	.	.	.	.	.	.
4F\	-cto-	.	8B-\L	pe-	4f\	-cto-	8dd\L	-cto-	8f\L	.	8f\	.	8F\	.	8b-\	.	.	.
!	!	!	!LO:SIC:v:s=8An\J	!	!	!	!	!	!	!	!	!	!	!	!LO:SIC:v:s=8an\J	!	!	!
.	.	.	8A-\J	.	.	.	8cc\J	.	8f\J	.	8f\J	.	8FF/J	.	8a-\J	.	.	.
=37	=37	=37	=37	=37	=37	=37	=37	=37	=37	=37	=37	=37	=37	=37	=37	=37	=37	=37
!	!	!	!	!	!	!	!	!	!	!	!	!	!LO:TX:t=P:problem=mixed beam	!	!	!	!	!
4BB-/	-rum	.	4B-\	-nis	4f\	-rum	4b-\	-rum	8B-/L	.	8f\L	.	8BB-/L	.	4b-\	.	2ryy	.
*	*Xij	*	*	*	*	*Xij	*	*Xij	*	*	*	*	*	*	*	*	*	*
.	.	.	.	.	.	.	.	.	8B-/	.	8f\	.	8B-\	.	.	.	.	.
8r	.	.	8r	.	8r	.	8r	.	8B-/J	.	8f\J	.	8BB-/J	.	4r	.	.	.
8BB-/	de	.	8F/	in-	8d\	de	8b-\	de	8r	.	8r	.	8r	.	.	.	.	.
=38	=38	=38	=38	=38	=38	=38	=38	=38	=38	=38	=38	=38	=38	=38	=38	=38	=38	=38
!	!	!	!	!	!	!	!	!	!LO:LB:g=original	!	!LO:LB:g=original	!	!	!	!	!	!	!
!LO:SIC:v:l:s=pae	!	!	!	!	!	!	!	!	!LO:TX:a:t=4	!	!LO:TX:a:t=4.	!	!LO:TX:a:t=4	!	!LO:TX:a:t=4	!	!	!
4F\	pa-	.	4F/	-fer-	8.c\L	poe-	8.an\L	pe-	0r	.	0r	.	0r	.	0r	.	2ryy	.
.	.	.	.	.	32d\LL	.	32b-\LL	.	.	.	.	.	.	.	.	.	.	.
.	.	.	.	.	32e-\JJJ	.	32cc\JJJ	.	.	.	.	.	.	.	.	.	.	.
8BB-/	-nis	.	8F/	.	8d\	-nis	8b-\	-nis	.	.	.	.	.	.	.	.	.	.
8B-\	in-	.	8B-\	-ni	8f\	in-	8dd\	in-	.	.	.	.	.	.	.	.	.	.
=39	=39	=39	=39	=39	=39	=39	=39	=39	=39	=39	=39	=39	=39	=39	=39	=39	=39	=39
4F\	-fer-	.	8.An\L	de	4f\	-fer-	8.cc\L	-fer-	.	.	.	.	.	.	.	.	2ryy	.
.	.	.	32B-\LL	.	.	.	32dd\LL	.	.	.	.	.	.	.	.	.	.	.
.	.	.	32c\JJJ	.	.	.	32ee-\JJJ	.	.	.	.	.	.	.	.	.	.	.
8BB-/	.	.	8B-\	pro-	8f\	-ni	8dd\	-ni	.	.	.	.	.	.	.	.	.	.
8B-\	-ni	.	8d\	.	8f\	de	8ff\	de	.	.	.	.	.	.	.	.	.	.
=40	=40	=40	=40	=40	=40	=40	=40	=40	=40	=40	=40	=40	=40	=40	=40	=40	=40	=40
4BB-/	de	.	4d\	-fun-	4f\	pro-	4ff\	pro-	.	.	.	.	.	.	.	.	2ryy	.
8E-\	pro-	.	8c\	.	8e-\	-fun-	8ee-\	.	.	.	.	.	.	.	.	.	.	.
8En\	.	.	8B-\	-do	8g\	.	8dd\	.	.	.	.	.	.	.	.	.	.	.
=41	=41	=41	=41	=41	=41	=41	=41	=41	=41	=41	=41	=41	=41	=41	=41	=41	=41	=41
!	!	!	!	!	!	!	!LO:LB:g=original	!	!	!	!	!	!	!	!	!	!	!
4F\	-fun-	.	4B-\	d[e]	4f\	-do	4dd\	-fun-	.	.	.	.	.	.	.	.	2ryy	.
!	!	!	!LO:SIC:v:s=4An\	!	!	!	!	!	!	!	!	!	!	!	!	!	!	!
4FF/	-do	.	4A-\	de	4f\	de	4cc\	-do	.	.	.	.	.	.	.	.	.	.
=42	=42	=42	=42	=42	=42	=42	=42	=42	=42	=42	=42	=42	=42!|:	=42	=42	=42	=42	=42
!	!	!	!LO:SIC:v:s=4An\	!	!	!	!	!	!	!LO:DY:a:t=p.:rj	!	!LO:DY:a:t=p&colon;	!	!	!	!	!	!
!	!	!	!LO:LB:g=original	!	!	!	!	!	!	!	!	!	!	!	!	!	!	!
4F\	de	.	4A-\	pro-	4f\	pro-	4f/	et	2f\	p	2f\	p	4FF/	.	16F/LL	.	2ryy	.
!	!	!	!	!	!	!	!	!	!	!	!	!	!	!	!LO:SIC:v:s=16An/	!	!	!
.	.	.	.	.	.	.	.	.	.	.	.	.	.	.	16A-/	.	.	.
.	.	.	.	.	.	.	.	.	.	.	.	.	.	.	16c/	.	.	.
!	!	!	!	!	!	!	!	!	!	!	!	!	!	!	!LO:SIC:v:s=16A/JJ	!	!	!
.	.	.	.	.	.	.	.	.	.	.	.	.	.	.	16A-/JJ	.	.	.
!	!	!	!LO:SIC:v:s=8An\	!	!	!	!	!	!	!	!	!	!	!	!	!	!	!
8F\	pro-	.	8A-\	-fun-	8f\	.	8f/	de	.	.	.	.	4r	.	16F/LL	.	.	.
!	!	!	!	!	!	!	!	!	!	!	!	!	!	!	!LO:SIC:v:s=16A/	!	!	!
.	.	.	.	.	.	.	.	.	.	.	.	.	.	.	16A-/	.	.	.
!	!	!	!LO:SIC:v:s=8An\	!	!	!	!	!	!	!	!	!	!	!	!	!	!	!
8F\	-fun-	.	8A-\	.	8f\	.	8f/	pro-	.	.	.	.	.	.	16c/	.	.	.
!	!	!	!	!	!	!	!	!	!	!	!	!	!	!	!LO:SIC:v:s=16A/JJ	!	!	!
.	.	.	.	.	.	.	.	.	.	.	.	.	.	.	16A-/JJ	.	.	.
=43	=43	=43	=43	=43	=43	=43	=43	=43	=43	=43	=43	=43	=43	=43	=43	=43	=43	=43
4F\	-do	.	4B-\	-do	4en\	-fun-	4g\	-fun-	2f\	.	2f\	.	4FF/	.	16G/LL	.	2ryy	.
.	.	.	.	.	.	.	.	.	.	.	.	.	.	.	16B-/	.	.	.
.	.	.	.	.	.	.	.	.	.	.	.	.	.	.	16c/	.	.	.
.	.	.	.	.	.	.	.	.	.	.	.	.	.	.	16B-/JJ	.	.	.
!	!	!	!	!	!	!	!LO:SIC:v:s=8an\ 	!	!	!	!	!	!	!	!	!	!	!
4F\	de	.	4c\	.	4e-X\	-do	4a-\	.	.	.	.	.	4r	.	16A/LL	.	.	.
.	.	.	.	.	.	.	.	.	.	.	.	.	.	.	16B-/	.	.	.
.	.	.	.	.	.	.	.	.	.	.	.	.	.	.	16A/	.	.	.
.	.	.	.	.	.	.	.	.	.	.	.	.	.	.	16B-/JJ	.	.	.
=44	=44	=44	=44	=44	=44	=44	=44	=44	=44	=44	=44	=44	=44	=44	=44	=44	=44	=44
2F\	La-	.	4d\	pro-	2d\	La-	2b-\	-do	2f\	.	2f\	.	4FF/	.	16B-/LL	.	2ryy	.
.	.	.	.	.	.	.	.	.	.	.	.	.	.	.	16d/	.	.	.
.	.	.	.	.	.	.	.	.	.	.	.	.	.	.	16f/	.	.	.
.	.	.	.	.	.	.	.	.	.	.	.	.	.	.	16b-/JJ	.	.	.
.	.	.	4B-\	-fun-	.	.	.	.	.	.	.	.	4r	.	8b-\L	.	.	.
.	.	.	.	.	.	.	.	.	.	.	.	.	.	.	16dd\L	.	.	.
.	.	.	.	.	.	.	.	.	.	.	.	.	.	.	16b-\JJ	.	.	.
=45	=45	=45	=45	=45	=45	=45	=45	=45	=45	=45	=45	=45	=45	=45	=45	=45	=45	=45
!	!	!	!LO:SIC:v:s=4An\	!	!	!	!LO:SIC:v:s=4an\	!	!	!	!	!	!LO:TX:t=P:problem=mixed beam	!	!LO:LB:g=original	!	!	!
4F\	-cu	.	4A-\	-do	4c\	-cu	4a-\	.	8f\L	.	8f\L	.	8FF/L	.	8a\L	.	2ryy	.
.	.	.	.	.	.	.	.	.	8f\J	.	8f\J	.	8F\J	.	8f\J	.	.	.
4r	.	.	4r	.	4r	.	4r	.	4f\	.	4f\	.	4FF/	.	4f\	.	.	.
=46	=46	=46	=46	=46	=46	=46	=46	=46	=46	=46	=46	=46	=46:|!	=46	=46	=46	=46	=46
*	*ij	*	*	*ij	*	*ij	*	*ij	*	*	*	*	*	*	*	*	*	*
!	!	!	!LO:SIC:v:s=4An\	!	!LO:LB:g=original	!	!	!	!	!	!	!	!LO:TX:t=P:problem=takty 46-49 zapisane repetycją	!	!	!	!	!
4F\	de	.	4A-\	de	4f\	et	4f/	et	2f\	.	2f\	.	4FF/yy	.	16F/LL	.	2ryy	.
!	!	!	!	!	!	!	!	!	!	!	!	!	!	!	!LO:SIC:v:s=16An/	!	!	!
.	.	.	.	.	.	.	.	.	.	.	.	.	.	.	16A-/	.	.	.
.	.	.	.	.	.	.	.	.	.	.	.	.	.	.	16c/	.	.	.
!	!	!	!	!	!	!	!	!	!	!	!	!	!	!	!LO:SIC:v:s=16A/JJ	!	!	!
.	.	.	.	.	.	.	.	.	.	.	.	.	.	.	16A-/JJ	.	.	.
!	!	!	!LO:SIC:v:s=8A\L	!	!	!	!	!	!	!	!	!	!	!	!	!	!	!
8F\	pro-	.	8A-\L	pro-	8f\	de	8f/	de	.	.	.	.	4ryy	.	16F/LL	.	.	.
!	!	!	!	!	!	!	!	!	!	!	!	!	!	!	!LO:SIC:v:s=16A/	!	!	!
.	.	.	.	.	.	.	.	.	.	.	.	.	.	.	16A-/	.	.	.
!	!	!	!LO:SIC:v:s=8A\J	!	!	!	!	!	!	!	!	!	!	!	!	!	!	!
8F\	-fun-	.	8A-\J	-fun-	8f\	pro-	8f/	pro-	.	.	.	.	.	.	16c/	.	.	.
!	!	!	!	!	!	!	!	!	!	!	!	!	!	!	!LO:SIC:v:s=16A/JJ	!	!	!
.	.	.	.	.	.	.	.	.	.	.	.	.	.	.	16A-/JJ	.	.	.
=47	=47	=47	=47	=47	=47	=47	=47	=47	=47	=47	=47	=47	=47	=47	=47	=47	=47	=47
4F\	-do	.	4B-\	-do	4en\	-fun-	4g\	-fun-	2f\	.	2f\	.	4FF/yy	.	16G/LL	.	2ryy	.
.	.	.	.	.	.	.	.	.	.	.	.	.	.	.	16B-/	.	.	.
.	.	.	.	.	.	.	.	.	.	.	.	.	.	.	16c/	.	.	.
.	.	.	.	.	.	.	.	.	.	.	.	.	.	.	16B-/JJ	.	.	.
!	!	!	!	!	!	!	!LO:SIC:v:s=4an\	!	!	!	!	!	!	!	!	!	!	!
4F\	de	.	4c\	de	4e-X\	-do	4a-\	.	.	.	.	.	4ryy	.	16A/LL	.	.	.
.	.	.	.	.	.	.	.	.	.	.	.	.	.	.	16c/	.	.	.
.	.	.	.	.	.	.	.	.	.	.	.	.	.	.	16A/	.	.	.
.	.	.	.	.	.	.	.	.	.	.	.	.	.	.	16c/JJ	.	.	.
=48	=48	=48	=48	=48	=48	=48	=48	=48	=48	=48	=48	=48	=48	=48	=48	=48	=48	=48
!LO:LB:g=original	!	!	!	!	!	!	!	!	!	!	!	!	!	!	!	!	!	!
2F\	La-	.	4d\	pro-	2d\	la-	2b-\	-do	2B-/	.	2f\	.	4FF/yy	.	8B-/L	.	2ryy	.
.	.	.	.	.	.	.	.	.	.	.	.	.	.	.	16d/L	.	.	.
.	.	.	.	.	.	.	.	.	.	.	.	.	.	.	16f/JJ	.	.	.
.	.	.	4B-\	-fun-	.	.	.	.	.	.	.	.	4ryy	.	8b-\L	.	.	.
.	.	.	.	.	.	.	.	.	.	.	.	.	.	.	16dd\L	.	.	.
.	.	.	.	.	.	.	.	.	.	.	.	.	.	.	16b-\JJ	.	.	.
*	*	*	*	*	*	*	*	*Xij	*	*	*	*	*	*	*	*	*	*
=49	=49	=49	=49	=49	=49	=49	=49	=49	=49	=49	=49	=49	=49	=49	=49	=49	=49	=49
!	!	!	!LO:SIC:v:s=4An\	!	!	!	!	!	!	!	!	!	!LO:TX:t=P:problem=mixed beam	!	!LO:SIC:v:s=8an/L	!	!	!
4F\	-cu	.	4A-\	-do	4c\	-cu	4an\	.	8f\L	.	8f\L	.	8FF/Lyy	.	8a-/L	.	2ryy	.
.	.	.	.	.	.	.	.	.	8f\J	.	8f\J	.	8F/Jyy	.	8f/J	.	.	.
4r	.	.	4r	.	4r	.	4r	.	4f\	.	4f\	.	4FF/yy	.	4f/	.	.	.
*	*Xij	*	*	*Xij	*	*Xij	*	*	*	*	*	*	*	*	*	*	*	*
=50	=50	=50	=50	=50	=50	=50	=50	=50	=50	=50	=50	=50	=50	=50	=50	=50	=50	=50
!	!	!	!LO:TX:a:t=1	!	!	!	!	!	!	!	!LO:TX:a:t=1.	!	!	!	!LO:TX:a:t=1	!	!	!
4B-\	Li-	.	2r	.	2r	.	2r	.	2r	.	2r	.	4BB-/	.	2r	.	2ryy	.
!	!	!	!	!	!	!	!	!	!	!	!	!	!LO:TX:t=P:problem=mixed beam	!	!	!	!	!
8B-\	-be-	.	.	.	.	.	.	.	.	.	.	.	8B-\L	.	.	.	.	.
8B-\	-ra	.	.	.	.	.	.	.	.	.	.	.	8BB-/J	.	.	.	.	.
=51	=51	=51	=51	=51	=51	=51	=51	=51	=51	=51	=51	=51	=51	=51	=51	=51	=51	=51
!	!	!	!	!	!	!	!	!	!	!LO:DY:a:t=for.	!	!	!	!	!	!LO:DY:a:t=for	!	!
4A-X\	e-	.	4B-\	Li-	4f\	Li-	4dd\	Li-	4B-/	f	4f\	.	4A-X\	.	4b-\	f	4dd\	.
8A-\	-as	.	8B-\	-be-	8f\	-be-	8dd\	-be-	8B-/L	.	8f\L	.	8A-\L	.	8b-\L	.	8dd\L	.
8A-\	de	.	8B-\	-ra	8f\	-ra	8dd\	-ra	8B-/J	.	8f\J	.	8A-\J	.	8b-\J	.	8dd\J	.
=52	=52	=52	=52	=52	=52	=52	=52	=52	=52	=52	=52	=52	=52	=52	=52	=52	=52	=52
!	!	!	!	!	!	!	!	!	!	!	!	!	!LO:LB:g=original	!	!	!	!	!
4G\	o-	.	4Bn\	e-	4f\	e-	4dd\	e-	4G/	.	4g\	.	4G\	.	4bX\	.	4dd\	.
!	!	!	!	!	!	!	!	!	!	!	!	!	!LO:TX:t=P:problem=mixed beam	!	!	!	!	!
8G\	-re	.	8B\	-as	8g\	-os	8dd\	-os	8G/L	.	8g\L	.	8GG/L	.	8b\L	.	8dd\L	.
8G\	.	.	8B\	de	8g\	de	8dd\	de	8G/J	.	8g\J	.	8G\J	.	8b\J	.	8dd\J	.
=53	=53	=53	=53	=53	=53	=53	=53	=53	=53	=53	=53	=53	=53	=53	=53	=53	=53	=53
!	!	!	!	!	!	!	!	!	!	!	!	!	!	!	!LO:TX:t=P:problem=mixed beam	!	!	!
8C\L	le-	.	8c\L	o-	4g\	O-	8ee-\L	o-	4G/	.	4g\	.	8C\L	.	8cc\L	.	8ee-\L	.
8D\J	.	.	8B-\	-re	.	.	8dd\J	.	.	.	.	.	8D\	.	8f/J	.	8dd\	.
8E-\	-o-	.	8c\J	.	8g\	re	8cc\	-re	8r	.	8r	.	8E-\	.	8g/L	.	8cc\	.
8C/	-nis	.	8G/	le-	8e-\	le-	8cc\	le-	8G/	.	8g\	.	8C\J	.	8e-/J	.	8b-\J	.
=54	=54	=54	=54	=54	=54	=54	=54	=54	=54	=54	=54	=54	=54	=54	=54	=54	=54	=54
4G\	ne	.	4G/	-o-	4e-\	-o-	4cc\	-o-	4G/	.	4g\	.	4G\	.	4e-/	.	4cc\	.
4GG/	ab-	.	4G/	-nis	4d\	-nis	4bn\	-nis	4G/	.	4g\	.	4GG/	.	4d/	.	4bX\	.
=55	=55	=55	=55	=55	=55	=55	=55	=55	=55	=55	=55	=55	=55	=55	=55	=55	=55	=55
!	!	!	!	!	!	!	!LO:LB:g=original	!	!	!	!	!	!	!	!	!	!	!
4G\	-ſor-	.	4Bn\	ne	4g\	ne	4dd\	ne	4G/	.	4g\	.	4G\	.	4bX\	.	4dd\	.
4G\	-be-	.	4B\	ab-	4g\	ab-	4dd\	ab-	4G/	.	4g\	.	4GG/	.	4b\	.	4dd\	.
=56	=56	=56	=56	=56	=56	=56	=56	=56	=56	=56	=56	=56	=56	=56	=56	=56	=56	=56
!	!	!	!	!	!	!	!	!	!	!	!	!	!LO:TX:t=P:problem=mixed beam	!	!LO:LB:g=original	!	!	!
4c\	-at	.	4c\	-ſor-	4g\	-sor-	4ee-\	-sor-	4G/	.	4g\	.	8C/L	.	4cc\	.	4ee-\	.
.	.	.	.	.	.	.	.	.	.	.	.	.	8c\J	.	.	.	.	.
!	!	!	!	!	!	!	!	!	!	!	!	!	!LO:TX:t=P:problem=mixed beam	!	!LO:SIC:v:s=8bn\L	!	!	!
8G\	e-	.	8d\	-be-	8f\	-be-	8dd\	-be-	4r	.	4r	.	8G\L	.	8b-\L	.	8dd\L	.
!	!	!	!LO:SIC:v:s=8Bn\	!	!	!	!	!	!	!	!	!	!	!	!LO:SIC:v:s=8b\J	!	!	!
8G\	-as	.	8B-\	-at	8f\	-at	8dd\	-at	.	.	.	.	8GG/J	.	8b-\J	.	8dd\J	.
=57	=57	=57	=57	=57	=57	=57	=57	=57	=57	=57	=57	=57	=57	=57	=57	=57	=57	=57
!	!	!	!	!	!	!	!	!	!LO:TX:a:t=1.	!	!	!	!	!	!	!	!	!
8A-\L	tar-	.	4.c\	e-	8e-\L	e-	4.cc\	e-	2r	.	2r	.	8A-\L	.	4.cc\	.	8cc\L	.
8E-\	.	.	.	.	8g\	.	.	.	.	.	.	.	8E-\	.	.	.	8gg\	.
8F\J	.	.	.	.	8a-\	-as	.	.	.	.	.	.	8F\	.	.	.	8aa-\	.
8A-\	-ta-	.	8A-\	-as	8f\J	.	8dd\	-as	.	.	.	.	8F\J	.	8dd\	.	8ff\J	.
=58	=58	=58	=58	=58	=58	=58	=58	=58	=58	=58	=58	=58	=58	=58	=58	=58	=58	=58
!	!	!	!LO:LB:g=original	!	!	!	!	!	!	!	!	!	!LO:TX:t=P:problem=mixed beam	!	!	!	!	!
4.G\	-rus	.	4.G/	tar-	4e-\	tar-	4cc\	tar-	8G/L	.	8g\L	.	8G\L	.	4.cc\	.	4ee-\	.
.	.	.	.	.	.	.	.	.	8G/	.	8g\	.	8G\	.	.	.	.	.
.	.	.	.	.	8d\	.	8bn\	.	8G/	.	8g\	.	8GG/	.	.	.	4dd\	.
8G\	.	.	8G/	-ta-	8d\	-ta-	8b\	-ta-	8G/J	.	8g\J	.	8GG/J	.	8bX\	.	.	.
=59	=59	=59	=59	=59	=59	=59	=59	=59	=59	=59	=59	=59	=59	=59	=59	=59	=59	=59
!	!	!	!	!	!LO:LB:g=original	!	!	!	!LO:LB:g=original	!	!LO:LB:g=original	!	!	!	!	!	!	!
4C/	ſed	.	4G/	-rum	4e-\	-rus	4cc\	-rum	4G/	.	4g\	.	4C/	.	4cc\	.	4cc\	.
8r	.	.	8r	.	8r	.	8r	.	8r	.	8r	.	8r	.	8r	.	8r	.
*	*ij	*	*	*	*	*	*	*	*	*	*	*	*	*	*	*	*	*
8e-\	ſed	.	8e-\	ne	8ee-\	ſed	8ee-\	ne	8E-/	.	8e-\	.	8E-\	.	8e-/	.	8ee-\	.
=60	=60	=60	=60	=60	=60	=60	=60	=60	=60	=60	=60	=60	=60	=60	=60	=60	=60	=60
2e-\	.	.	2e-\	Ca-	2ee-\	.	2ee-\	Ca-	2E-/	.	2e-\	.	2E-\	.	2e-/	.	2ee-\	.
*	*Xij	*	*	*	*	*	*	*	*	*	*	*	*	*	*	*	*	*
=61	=61	=61	=61	=61	=61	=61	=61	=61	=61	=61	=61	=61	=61	=61	=61	=61	=61	=61
!	!	!LO:DY:a	!	!	!	!	!	!	!	!LO:DY:a:t=p.	!	!	!	!	!	!	!	!
4E-\	ſig-	p	4E-/	-dant	4e-\	ſig-	4e-/	.	4E-/	p	4E-/	.	4EE-/	.	4E-/	.	4e-/	.
!	!	!	!	!	!	!	!	!	!	!	!	!LO:DY:a:t=p&colon;:rj	!LO:TX:t=P:problem=mixed beam	!	!LO:TX:t=P:problem=mixed beam	!	!	!
8E-\	-ni-	.	8E-/	in	8e-\	-ni-	8e-/	-dans	8B-/L	.	8e-\L	p	8E-\L	.	8g/L	.	8ee-\L	p
8E-\	-fer	.	8E-/	ob-	8e-\	-fer	8e-/	in	8B-/J	.	8e-\J	.	8EE-/J	.	8ee-\J	.	8ee-\J	.
=62	=62	=62	=62	=62	=62	=62	=62	=62	=62	=62	=62	=62	=62	=62	=62	=62	=62	=62
!LO:LB:g=original	!	!	!	!	!	!	!	!	!	!	!	!	!	!	!	!	!	!
2BB-/	ſan-	.	2B-\	-ſcu-	4.d\	ſan-	4.f/	ob-	4.B-/	.	4.f\	.	4BB-/	.	4.dd\	.	4.ff\	.
!	!	!	!	!	!	!	!	!	!	!	!	!	!LO:TX:t=P:problem=mixed beam	!	!	!	!	!
.	.	.	.	.	.	.	.	.	.	.	.	.	8B-\L	.	.	.	.	.
.	.	.	.	.	16e-\LL	-ctus	16g/LL	-scu-	16e-\LL	.	16g\LL	.	8BB-/J	.	16dd\LL	.	16gg\LL	.
.	.	.	.	.	16f\JJ	.	16a-/JJ	.	16f\JJ	.	16a-\JJ	.	.	.	16ee-\JJ	.	16aa-\JJ	.
=63	=63	=63	=63	=63	=63	=63	=63	=63	=63	=63	=63	=63	=63	=63	=63	=63	=63	=63
4E-\	-ctus	.	4B-\	-rum	4e-\	.	4g\	-rum	4e-\	.	4g\	.	4E-\	.	4ee-\	.	4gg\	.
!	!	!	!	!	!	!	!	!	!	!	!	!	!LO:TX:t=P:problem=mixed beam	!	!	!	!	!
8E-\	.	.	8B-\	in	8e-\	.	8g\	in	4r	.	4r	.	8E-\L	.	8ee-\L	.	8gg\L	.
8E-\	Mi-	.	8B-\	ob-	8e-\	Mi-	8g\	ob-	.	.	.	.	8EE-/J	.	8ee-\J	.	8gg\J	.
=64	=64	=64	=64	=64	=64	=64	=64	=64	=64	=64	=64	=64	=64	=64	=64	=64	=64	=64
!	!	!	!	!	!	!	!	!	!LO:TX:a:t=1.	!	!	!	!	!	!	!	!	!
2AAn/	-cha-	.	2An\	-ſcu-	2e-\	-cha-	2g-X\	-scu-	2r	.	2r	.	2AAn/	.	2ee-\	.	2gg-X\	.
=65	=65	=65	=65	=65	=65	=65	=65	=65	=65	=65	=65	=65	=65	=65	=65	=65	=65	=65
!	!	!	!	!	!	!	!	!	!	!LO:DY:a:t=pp.	!	!LO:DY:a:t=pp&colon;	!	!	!	!	!LO:LB:g=original	!
4BB-/	-el	.	4B-\	-rum	4d\	-el	4f/	-rum	8BB-/L	pp	8B-/L	pp	4BB-/	.	8dd\L	.	8ff\L	.
.	.	.	.	.	.	.	.	.	8BB-/	.	8B-/	.	.	.	8dd\	.	8ff\	.
4r	.	.	4r	.	4r	.	4r	.	8BB-/	.	8B-/	.	4r	.	8dd\	.	8ff\	.
.	.	.	.	.	.	.	.	.	8BB-/J	.	8B-/J	.	.	.	8dd\J	.	8ff\J	.
=66	=66	=66	=66	=66	=66	=66	=66	=66	=66	=66	=66	=66	=66	=66	=66	=66	=66	=66
*	*	*	*	*	*	*	*	*	*	*	*tremolo	*	*	*	*	*	*	*
!LO:TX:a:t=1	!	!	!	!	!LO:TX:a:t=1	!	!LO:TX:a:t=1	!	!	!	!	!	!	!	!	!	!	!
2r	.	.	2r	.	2r	.	2r	.	8BB-/L	.	8B-/L	.	4C/	.	8ee-\L	.	8gg-X\L	.
.	.	.	.	.	.	.	.	.	8BB-/	.	8B-/	.	.	.	8dd\	.	8ff\J	.
.	.	.	.	.	.	.	.	.	8BB-/	.	8B-/	.	4r	.	8dd\	.	8ff\L	.
.	.	.	.	.	.	.	.	.	8BB-/J	.	8B-/J	.	.	.	8dd\J	.	16bb-\L	.
.	.	.	.	.	.	.	.	.	.	.	.	.	.	.	.	.	16aa-\JJ	.
=67	=67	=67	=67	=67	=67	=67	=67	=67	=67	=67	=67	=67	=67	=67	=67	=67	=67	=67
*	*	*	*	*ij	*	*	*	*ij	*	*	*Xtremolo	*	*	*	*	*	*	*
8E-\	San-	.	8B-\	in	4e-\	San-	8g-X\	in	8BB-/	.	8B-/	.	8E-\L	.	8ee-\L	.	8gg-X\L	.
8E-\	-ctus	.	4B-\	ob-	.	.	8g-\	ob-	8r	.	8r	.	8E-\J	.	8ee-\J	.	8gg-\J	.
!	!	!	!	!	!	!	!	!	!	!	!	!	!LO:LB:g=original	!	!	!	!	!
4AAn/	Micha-	.	.	.	8e-\	-ctus	4g-\	-scu-	4r	.	4r	.	8AAn/L	.	4ee-\	.	4gg-\	.
.	.	.	8c\	-ſcu-	8e-\	Mi-	.	.	.	.	.	.	8AA/J	.	.	.	.	.
!	!	!	!	!	!	!	!LO:TX:t=V[er]te:b	!	!	!	!	!	!	!	!	!	!	!
=68	=68	=68	=68	=68	=68	=68	=68	=68	=68	=68	=68	=68	=68	=68	=68	=68	=68	=68
!	!	!	!	!	!	!	!LO:PB:g=original	!	!LO:TX:a:t=1	!	!	!	!	!	!	!	!	!
4BB-/	-el	.	4B-\	-rum	4d\	-chael	4f/	-rum	2r	.	2r	.	8BB-/L	.	4dd\	.	4ff\	.
.	.	.	.	.	.	.	.	.	.	.	.	.	8BB-/J	.	.	.	.	.
4r	.	.	4r	.	4r	.	4r	.	.	.	.	.	4BB-/	.	4r	.	4r	.
*	*	*	*	*Xij	*	*	*	*Xij	*	*	*	*	*	*	*	*	*	*
=69	=69	=69	=69	=69	=69	=69	=69	=69	=69	=69	=69	=69	=69	=69	=69!|:	=69	=69	=69
!	!	!	!	!	!	!	!	!	!	!LO:DY:a:t=for	!	!LO:DY:a:t=for&colon;	!	!	!LO:TX:t=bis	!LO:DY:a:t=for	!	!
2E-\	ſed	.	2B-\	ſed	2g\	Sed	2b-\	Sed	8G/L	f	8e-\L	f	4E-\	.	16G/LL	f	2b-\	.
.	.	.	.	.	.	.	.	.	.	.	.	.	.	.	16B-/	.	.	.
.	.	.	.	.	.	.	.	.	8G/	.	8e-\	.	.	.	16G/	.	.	.
.	.	.	.	.	.	.	.	.	.	.	.	.	.	.	16B-/JJ	.	.	.
.	.	.	.	.	.	.	.	.	8G/	.	8e-\	.	4r	.	16G/LL	.	.	.
.	.	.	.	.	.	.	.	.	.	.	.	.	.	.	16B-/	.	.	.
.	.	.	.	.	.	.	.	.	8G/J	.	8e-\J	.	.	.	16G/	.	.	.
.	.	.	.	.	.	.	.	.	.	.	.	.	.	.	16B-/JJ	.	.	.
=70	=70	=70	=70	=70	=70	=70	=70	=70	=70	=70	=70	=70	=70	=70	=70:|!	=70	=70	=70
!	!	!	!	!	!	!	!	!	!	!	!	!	!	!	!LO:TX:a:t=takt zapisany repetycją	!	!	!
8.E-\	ſig-	.	8.B-\	ſig-	8.g\	ſig-	8.ee-\	ſig-	4G/	.	4e-\	.	8.E-\L	.	16G/LLyy	.	8.ee-\L	.
.	.	.	.	.	.	.	.	.	.	.	.	.	.	.	16B-/yy	.	.	.
.	.	.	.	.	.	.	.	.	.	.	.	.	.	.	16G/yy	.	.	.
16E-\	-ni-	.	16e-\	-ni-	16g\	-gni-	16b-\	-gni-	.	.	.	.	16E-\Jk	.	16B-/JJyy	.	16b-\Jk	.
4E-\	-fer	.	4e-\	-fer	4g\	-fer	4b-\	-fer	4r	.	4r	.	4E-\	.	16G/LLyy	.	4b-\	.
.	.	.	.	.	.	.	.	.	.	.	.	.	.	.	16B-/yy	.	.	.
.	.	.	.	.	.	.	.	.	.	.	.	.	.	.	16G/yy	.	.	.
.	.	.	.	.	.	.	.	.	.	.	.	.	.	.	16B-/JJyy	.	.	.
=71	=71	=71	=71	=71	=71	=71	=71	=71	=71	=71	=71	=71	=71	=71	=71	=71	=71	=71
!	!	!	!	!	!	!	!	!	!	!	!	!	!	!	!LO:LB:g=original	!	!	!
4r	.	.	4r	.	4g\	ſan-	4b-\	San-	4G/	.	4e-\	.	4E-\	.	4g/	.	4b-\	.
8E-\	ſa[n]-	.	8B-\	ſan-	16a-\LL	.	16cc\LL	.	8r	.	8r	.	8r	.	16a-/LL	.	16cc\LL	.
.	.	.	.	.	16g\JJ	.	16b-\JJ	.	.	.	.	.	.	.	16g/	.	16b-\	.
8E-\	-ctus	.	8B-\	.	16f\LL	-ctus	16a-\LL	-ctus	8e-\	.	8g\	.	8E-\	.	16f/	.	16a-\	.
.	.	.	.	.	16e-\JJ	.	16g\JJ	.	.	.	.	.	.	.	16e-/JJ	.	16g\JJ	.
=72	=72	=72	=72	=72	=72	=72	=72	=72	=72	=72	=72	=72	=72	=72	=72	=72	=72	=72
!	!	!	!	!	!LO:LB:g=original	!	!	!	!	!	!	!	!LO:TX:t=P:problem=mixed beam	!	!	!	!	!
8.B-\	Mi-	.	8.B-\	-ctus	8.e-\	Mi-	8.g\	Mi-	4e-\	.	4g\	.	8B-\L	.	8e-/L	.	8.g\L	.
.	.	.	.	.	.	.	.	.	.	.	.	.	8BB-/	.	8eX/J	.	.	.
.	.	.	.	.	8qqf/	.	.	.	.	.	.	.	.	.	.	.	.	.
16BB-/	-cha-	.	16B-\	.	16en\	-cha-	16g\	-cha-	.	.	.	.	.	.	.	.	16a-\Jk	.
4BB-/	-el	.	4B-\	.	4f\	-el	4a-\	-el	4f\	.	4a-\	.	8BB-/	.	4f/	.	4a-\	.
.	.	.	.	.	.	.	.	.	.	.	.	.	8BB-/J	.	.	.	.	.
=73	=73	=73	=73	=73	=73	=73	=73	=73	=73	=73	=73	=73	=73	=73	=73	=73	=73	=73
*	*	*	*	*	*	*	*	*	*	*	*	*	*tremolo	*	*	*	*	*
4r	.	.	4.B-\	Mi-	4a-\	re-	4ff\	re-	8.B-/L	.	8.f\L	.	8BB-/L	.	4a-\	.	8.ff\L	.
.	.	.	.	.	.	.	.	.	.	.	.	.	8BB-/	.	.	.	.	.
.	.	.	.	.	.	.	.	.	16B-/Jk	.	16f\Jk	.	.	.	.	.	16a-\Jk	.
8BB-/	re-	.	.	.	4f\	-pre-	4a-\	-pre-	4B-/	.	4f\	.	8BB-/	.	4f/	.	4a-\	.
8BB-/	-pre-	.	8B-\	-cha-	.	.	.	.	.	.	.	.	8BB-/J	.	.	.	.	.
*	*	*	*	*	*	*	*	*	*	*	*	*	*Xtremolo	*	*	*	*	*
=74	=74	=74	=74	=74	=74	=74	=74	=74	=74	=74	=74	=74	=74	=74	=74	=74	=74	=74
!	!	!	!LO:LB:g=original	!	!	!	!	!	!LO:LB:g=original	!	!LO:LB:g=original	!	!	!	!	!	!	!
4.BB-/	-sen-	.	4.B-\	-el	4f\	-ſen-	4a-\	-sen-	4B-/	.	4f\	.	4BB-/	.	4f/	.	4a-\	.
.	.	.	.	.	16g\LL	.	16b-\LL	-tet	8r	.	8r	.	8r	.	16g/LL	.	16b-\LL	.
.	.	.	.	.	16f\JJ	.	16a-\JJ	.	.	.	.	.	.	.	16f/	.	16a-\	.
8BB-/	-tet	.	8B-\	re-	16e-\LL	-tet	16g\LL	.	8B-/	.	8f\	.	8BB-/	.	16e-/	.	16g\	.
.	.	.	.	.	16d\JJ	.	16f\JJ	.	.	.	.	.	.	.	16d/JJ	.	16f\JJ	.
=75	=75	=75	=75	=75	=75	=75	=75	=75	=75	=75	=75	=75	=75	=75	=75	=75	=75	=75
4E-\	in	.	4B-\	-pre-	4d\	in	4f/	e-	4B-/	.	4f\	.	8E-\L	.	4d/	.	4f/	.
.	.	.	.	.	.	.	.	.	.	.	.	.	8BB-\J	.	.	.	.	.
4E-\	.	.	4B-\	-sen-	4e-\	.	4g/	-as	8e-\L	.	8g\L	.	8EE-/	.	4e-/	.	4g/	.
.	.	.	.	.	.	.	.	.	16g\L	.	16b-\L	.	8r	.	.	.	.	.
.	.	.	.	.	.	.	.	.	16f\JJ	.	16a-\JJ	.	.	.	.	.	.	.
=76	=76	=76	=76	=76	=76	=76	=76	=76	=76	=76	=76	=76	=76	=76	=76	=76	=76	=76
*	*	*	*	*	*	*	*	*	*	*	*	*	*tremolo	*	*	*	*	*
2E-\	in	.	2B-\	-tet	2g\	in	2ee-\	in	8e-\L	.	8g\L	.	8E-\L	.	8r	.	8r	.
.	.	.	.	.	.	.	.	.	8e-\	.	8g\	.	8E-\	.	8g/L	.	8ee-\L	.
.	.	.	.	.	.	.	.	.	8e-\	.	8g\	.	8E-\	.	8g/	.	8ee-\	.
.	.	.	.	.	.	.	.	.	8e-\J	.	8g\J	.	8E-\J	.	8g/J	.	8ee-\J	.
=77	=77	=77	=77	=77	=77	=77	=77	=77	=77	=77	=77	=77	=77	=77	=77	=77	=77	=77
!LO:LB:g=original	!	!	!	!	!	!	!	!	!	!	!	!	!	!	!	!	!	!
4C/	Lu-	.	4c\	e-	4g\	Lu-	4ee-\	lu-	8r	.	8r	.	8C/L	.	8r	.	8r	.
.	.	.	.	.	.	.	.	.	8e-\L	.	8g\L	.	8C/	.	8g/L	.	8ee-\L	.
4c\	-cem	.	4c\	-as	4g\	-cem	4ee-\	-cem	8e-\	.	8g\	.	8C/	.	8g/	.	8ee-\	.
.	.	.	.	.	.	.	.	.	8e-\J	.	8g\J	.	8C/J	.	8g/J	.	8ee-\J	.
=78	=78	=78	=78	=78	=78	=78	=78	=78	=78	=78	=78	=78	=78	=78	=78	=78	=78	=78
!	!	!	!	!	!	!	!	!	!	!	!	!	!	!	!	!	!LO:LB:g=original	!
2An\	ſan-	.	2c\	in Lu-	2f\	ſan-	2ee-\	ſan-	8r	.	8r	.	8AAn/L	.	8r	.	8r	.
.	.	.	.	.	.	.	.	.	8f\L	.	8f\L	.	8AAn/	.	8f/L	.	8ee-\L	.
.	.	.	.	.	.	.	.	.	8f\	.	8f\	.	8AAn/	.	8f/	.	8ee-\	.
.	.	.	.	.	.	.	.	.	8f\J	.	8f\J	.	8AAn/J	.	8f/J	.	8ee-\J	.
*	*	*	*	*	*	*	*	*	*	*	*	*	*Xtremolo	*	*	*	*	*
=79	=79	=79	=79	=79	=79	=79	=79	=79	=79	=79	=79	=79	=79	=79	=79	=79	=79	=79
!	!	!	!	!	!	!	!	!	!	!	!	!	!LO:TX:t=P:problem=mixed beam	!	!	!	!	!
4B-\	-ctam	.	4B-\	-cem	4f\	-ctam	4dd\	-ctum	4B-/	.	4f\	.	8BB-/L	.	8f/L	.	8dd\L	.
.	.	.	.	.	.	.	.	.	.	.	.	.	8B-\J	.	8d/J	.	8b-\J	.
4r	.	.	4r	.	4r	.	4r	.	4r	.	4r	.	4BB-/	.	4d/	.	4b-\	.
=80	=80	=80	=80	=80	=80	=80	=80	=80	=80	=80	=80	=80	=80	=80	=80	=80	=80	=80
!	!	!	!	!	!LO:TX:a:t=1	!	!LO:TX:a:t=1	!	!	!LO:DY:a:t=p.	!	!	!	!	!LO:TX:a:t=1	!	!LO:TX:a:t=1	!
8B-\	re-	.	8B-\	ſan-	2r	.	2r	.	4BB-/	p	4B-/	.	4B-\	.	2r	.	2r	.
8B-\	-pre-	.	8B-\	.	.	.	.	.	.	.	.	.	.	.	.	.	.	.
!	!	!	!	!	!	!	!	!	!	!	!	!	!LO:TX:t=P:problem=mixed beam	!	!	!	!	!
8B-\	-sen-	.	8B-\	.	.	.	.	.	8BB-/L	.	8B-/L	.	8B-\L	.	.	.	.	.
8B-\	.	.	8B-\	-ctam	.	.	.	.	8BB-/J	.	8B-/J	.	8BB-/J	.	.	.	.	.
=81	=81	=81	=81	=81	=81	=81	=81	=81	=81	=81	=81	=81	=81	=81	=81	=81	=81	=81
!	!	!	!	!	!	!	!LO:LB:g=original	!	!	!	!	!	!	!	!	!	!	!
2B-\	-tet	.	2B-\	-re-	8r	.	8r	.	2BB-/	.	2B-/	.	4BB-/	.	8r	.	8r	.
.	.	.	.	.	4g\	re-	4b-\	re-	.	.	.	.	.	.	4gg\	.	4bb-\	.
.	.	.	.	.	.	.	.	.	.	.	.	.	4r	.	.	.	.	.
.	.	.	.	.	8e-\	-pre-	8g\	-pre-	.	.	.	.	.	.	8ee-\	.	8gg\	.
=82	=82	=82	=82	=82	=82	=82	=82	=82	=82	=82	=82	=82	=82	=82	=82	=82	=82	=82
!LO:N:vis=2.	!	!	!	!	!	!	!	!	!	!	!	!	!	!	!	!	!	!
2B-\	e-	.	2B-\	-pre-	8e-\	-ſen-	8g\	-sen-	2BB-/	.	2B-/	.	4BB-/	.	8ee-\	.	8gg\	.
.	.	.	.	.	4f\	.	4a-\	-tet	.	.	.	.	.	.	4ff\	.	4aa-\	.
.	.	.	.	.	.	.	.	.	.	.	.	.	4r	.	.	.	.	.
.	.	.	.	.	8d\	-tet	8f\	.	.	.	.	.	.	.	8dd\	.	8ff\	.
=83	=83	=83	=83	=83	=83	=83	=83	=83	=83	=83	=83	=83	=83	=83	=83	=83	=83	=83
!	!	!	!	!	!	!	!	!	!	!	!	!	!LO:LB:g=original	!	!	!	!	!
2B-\	-as	.	2B-\	-ſen-	8d\	e-	8f/	e-	4BB-/	.	4B-/	.	4BB-/	.	8dd\	.	8ff\	.
.	.	.	.	.	4.e-\	.	4g/	.	.	.	.	.	.	.	4ee-\	.	4gg\	.
.	.	.	.	.	.	.	.	.	8r	.	8r	.	4r	.	.	.	.	.
.	.	.	.	.	.	.	8an/	.	8f\	.	8f\	.	.	.	8a\	.	8ee-\	.
=84	=84	=84	=84	=84	=84	=84	=84	=84	=84	=84	=84	=84	=84	=84	=84	=84	=84	=84
!	!	!	!	!	!	!	!	!	!	!	!	!	!	!	!LO:TX:t=P:problem=mixed beam	!	!	!
4B-\	re-	.	4B-\	-tet	4d\	-as	4b-\	-as	4f\	.	4f\	.	4BB-/	.	8b-\L	.	8dd\L	.
.	.	.	.	.	.	.	.	.	.	.	.	.	.	.	8B-/	.	8b-\J	.
4BB-/	-pre-	.	4r	.	4r	.	4r	.	4r	.	4r	.	4r	.	8B-/	.	4b-\	.
.	.	.	.	.	.	.	.	.	.	.	.	.	.	.	8B-/J	.	.	.
=85	=85	=85	=85	=85	=85	=85	=85	=85	=85	=85	=85	=85	=85	=85	=85	=85	=85	=85
!	!	!	!	!	!LO:LB:g=original	!	!	!	!	!	!	!	!	!	!	!	!	!
2BB-/	-sen-	.	8r	.	8r	.	2b-\	in	8r	.	8r	.	4BB-/	.	2B-/	.	8r	.
.	.	.	4g\	re-	4b-\	re-	.	.	4g\	.	4b-\	.	.	.	.	.	4gg\	.
.	.	.	.	.	.	.	.	.	.	.	.	.	4r	.	.	.	.	.
.	.	.	8e-\	-pre-	8g\	-pre-	.	.	8e-\	.	8g\	.	.	.	.	.	[8ee-\	.
=86	=86	=86	=86	=86	=86	=86	=86	=86	=86	=86	=86	=86	=86	=86	=86	=86	=86	=86
2BB-/	-tet	.	8e-\	-ſen-	8g\	-sen-	4b-\	lu-	8e-\	.	8g\	.	4BB-/	.	2B-/	.	8ee-\]	.
.	.	.	4f\	.	4a-\	.	.	.	4f\	.	4a-\	.	.	.	.	.	4ff\	.
.	.	.	.	.	.	.	4b-\	-cem	.	.	.	.	4r	.	.	.	.	.
.	.	.	8d\	-tet	8f\	-tet	.	.	8B-/	.	8f\	.	.	.	.	.	8dd\	.
=87	=87	=87	=87	=87	=87	=87	=87	=87	=87	=87	=87	=87	=87	=87	=87	=87	=87	=87
!	!	!	!	!	!	!	!	!	!	!	!LO:LB:g=original	!	!	!	!LO:TX:t=P:problem=mixed beam	!	!	!
2BB-/	in	.	2e-\	e-	2g\	in	2b-\	ſan-	8B-/	.	8f\	.	4BB-/	.	8B-/L	.	8dd\	.
!	!	!	!	!	!	!	!	!	!	!	!	!	!	!	!LO:TX:t=a	!	!	!
.	.	.	.	.	.	.	.	.	4e-\	.	4g\	.	.	.	8g\	.	4ee-\	.
!	!	!	!	!	!	!	!	!	!	!	!	!	!	!	!LO:TX:t=a	!	!	!
.	.	.	.	.	.	.	.	.	.	.	.	.	4r	.	8g\	.	.	.
!	!	!	!	!	!	!	!	!	!	!	!	!	!	!	!LO:TX:t=a	!	!	!
.	.	.	.	.	.	.	.	.	8e-\	.	8g\	.	.	.	8g\J	.	8ee-\	.
=88	=88	=88	=88	=88	=88	=88	=88	=88	=88	=88	=88	=88	=88	=88	=88	=88	=88	=88
*	*	*	*	*	*	*	*	*	*	*	*	*	*	*	*tremolo	*	*	*
!	!	!	!	!	!	!	!	!	!LO:LB:g=original	!	!	!	!	!	!LO:LB:g=original	!	!	!
2AAn/	ſa[n]-	.	2e-\	.	2f\	ſan-	2cc\	.	8f\L	.	8f\L	.	8AAn/L	.	8f/L	.	8ee-\L	.
.	.	.	.	.	.	.	.	.	8f\	.	8f\	.	8AA/	.	8f/	.	8ee-\	.
.	.	.	.	.	.	.	.	.	8f\	.	8f\	.	8AA/	.	8f/	.	8ee-\	.
.	.	.	.	.	.	.	.	.	8f\J	.	8f\J	.	8AA/J	.	8f/J	.	8ee-\J	.
*	*	*	*	*	*	*	*	*	*	*	*	*	*	*	*Xtremolo	*	*	*
=89	=89	=89	=89	=89	=89	=89	=89	=89	=89	=89	=89	=89	=89	=89	=89	=89	=89	=89
4BB-/	-ctam	.	4d\	-as	4f\	-ctam	8b-\	-ctam	8B-/	.	8f\	.	8BB-/	.	8f\L	.	8dd\L	.
.	.	.	.	.	.	.	8r	.	8r	.	8r	.	8r	.	16b-\L	.	16dd\L	.
.	.	.	.	.	.	.	.	.	.	.	.	.	.	.	16b-\JJ	.	16ee-\JJ	.
4r	.	.	4r	.	4r	.	4r	.	4r	.	4r	.	4r	.	16dd\LL	.	16ff\LL	.
.	.	.	.	.	.	.	.	.	.	.	.	.	.	.	16ee-\	.	16gg\	.
.	.	.	.	.	.	.	.	.	.	.	.	.	.	.	16dd\	.	16ff\	.
.	.	.	.	.	.	.	.	.	.	.	.	.	.	.	16ee-\JJ	.	16gg\JJ	.
=90	=90	=90	=90	=90	=90	=90	=90	=90	=90	=90	=90	=90	=90	=90	=90	=90	=90	=90
!	!	!	!	!	!	!	!	!	!	!	!	!	!	!	!	!	!LO:LB:g=original	!
!	!	!	!	!	!	!	!	!	!	!LO:DY:a:t=fp.	!	!LO:DY:a:t=fp&colon;	!	!LO:DY:a	!LO:TX:t=P:problem=mixed beam	!LO:DY:a	!LO:TX:t=P:problem=mixed beam	!
2D\	in	.	2B-\	in	2f\	in	2a-X\	in	8B-/L	fp	8f\L	fp	8D\L	f	8ff\L	fp	8aa-X\L	f
!	!	!	!	!	!	!	!	!	!	!	!	!	!	!LO:DY:a	!	!	!	!
.	.	.	.	.	.	.	.	.	8B-/	.	8f\	.	8D\	p	8f/	.	8a-/	p
.	.	.	.	.	.	.	.	.	8B-/	.	8f\	.	8D\	.	8f/	.	8a-/	.
.	.	.	.	.	.	.	.	.	8B-/J	.	8f\J	.	8D\J	.	8f/J	.	8a-/J	.
=91	=91	=91	=91	=91	=91	=91	=91	=91	=91	=91	=91	=91	=91	=91	=91	=91	=91	=91
!	!	!	!	!	!	!	!	!	!	!LO:DY:a:t=fp.	!	!LO:DY:a:t=fp&colon;	!	!LO:DY:a:rj	!LO:TX:t=P:problem=mixed beam	!LO:DY:a	!LO:TX:t=P:problem=mixed beam	!
4E-\	Lu-	.	4B-\	lu-	4e-\	Lu-	4g\	lu-	8e-\L	fp	8g\L	f	8E-\L	f	8ee-\L	fp	8gg\L	f
!	!	!	!	!	!	!	!	!	!	!	!	!	!	!LO:DY:a:rj	!	!	!	!
.	.	.	.	.	.	.	.	.	8e-\	.	8g\	.	8E-\	p	8e-/	.	8g/	p
4E-\	-cem	.	4B-\	-cem	4e-\	-cem	4g\	-cem	8e-\	.	8g\	.	8E-\	.	8e-/	.	8g/	.
.	.	.	.	.	.	.	.	.	8e-\J	.	8g\J	.	8E-\J	.	8e-/J	.	8g/J	.
=92	=92	=92	=92	=92	=92	=92	=92	=92	=92	=92	=92	=92	=92	=92	=92	=92	=92	=92
*	*	*	*	*	*	*	*	*	*	*	*tremolo	*	*	*	*	*	*	*
!	!	!	!	!	!	!	!	!	!	!LO:DY:a:t=fp.	!	!LO:DY:a:t=fp&colon;	!	!LO:DY:a:rj	!LO:TX:t=P:problem=mixed beam	!LO:DY:a	!LO:TX:t=P:problem=mixed beam	!
2D\	ſan-	.	2B-\	ſan-	2f\	ſan-	2a-\	ſan-	8B-/L	fp	8f\L	fp	8D\L	f	8ff\L	fp	8aa-\L	f
!	!	!	!	!	!	!	!	!	!	!	!	!	!	!LO:DY:a	!	!	!	!
.	.	.	.	.	.	.	.	.	8B-/	.	8f\	.	8D\	p	8f/	.	8a-/	p
.	.	.	.	.	.	.	.	.	8B-/	.	8f\	.	8D\	.	8f/	.	8a-/	.
.	.	.	.	.	.	.	.	.	8B-/J	.	8f\J	.	8D\J	.	8f/J	.	8a-/J	.
=93	=93	=93	=93	=93	=93	=93	=93	=93	=93	=93	=93	=93	=93	=93	=93	=93	=93	=93
!	!	!	!	!	!	!	!	!	!	!LO:DY:a:t=fp.	!	!LO:DY:a:t=fp&colon;	!	!LO:DY:a	!LO:TX:t=P:problem=mixed beam	!LO:DY:a	!LO:TX:t=P:problem=mixed beam	!
4E-\	-ctam	.	4B-\	-ctam	4e-\	-ctam	4g\	-ctam	8e-\L	fp	8g\L	fp	8E-\L	f	8ee-\L	fp	8gg\L	f
!	!	!	!	!	!	!	!	!	!	!	!	!	!	!LO:DY:a	!	!	!	!
.	.	.	.	.	.	.	.	.	8e-\	.	8g\	.	8E-\	p	8e-/	.	8g/	p
4r	.	.	4r	.	4r	.	4r	.	8e-\	.	8g\	.	8E-\	.	8e-/	.	8g/	.
.	.	.	.	.	.	.	.	.	8e-\J	.	8g\J	.	8E-\J	.	8e-/J	.	8g/J	.
*	*	*	*	*	*	*	*	*	*	*	*Xtremolo	*	*	*	*	*	*	*
=94	=94	=94	=94	=94	=94	=94	=94	=94	=94	=94	=94	=94	=94	=94	=94	=94	=94	=94
!	!	!	!LO:LB:g=original	!	!	!	!	!	!	!	!	!	!LO:TX:t=P:problem=mixed beam	!	!	!	!	!
4r	.	.	4r	.	4r	.	4r	.	4f\	.	4f\	.	8AA-/L	.	8r	.	8r	.
.	.	.	.	.	.	.	.	.	.	.	.	.	8A-\	.	8cc\L	.	8ff\L	.
4A-\	in	.	4c\	in	4f\	in	4ff\	in	8r	.	8r	.	8A-\	.	8cc\	.	8ff\	.
.	.	.	.	.	.	.	.	.	8f\	.	8f\	.	8A-\J	.	8cc\J	.	8ff\J	.
=95	=95	=95	=95	=95	=95	=95	=95	=95	=95	=95	=95	=95	=95	=95	=95	=95	=95	=95
!LO:LB:g=original	!	!	!	!	!	!	!LO:LB:g=original	!	!	!	!	!	!	!	!	!	!	!
4.A-\	Lu-	.	4.c\	lu-	4f\	Lu-	4ff\	lu-	4f\	.	4f\	.	4A-\	.	4cc\	.	4ff\	.
.	.	.	.	.	4f\	-cem	16aa-\LL	-cem	8r	.	8r	.	8r	.	16cc\LL	.	16aa-\LL	.
.	.	.	.	.	.	.	16ff\JJ	.	.	.	.	.	.	.	16a-\	.	16ff\	.
8A-\	-cem	.	8c\	-cem	.	.	16aa-\LL	.	8f\	.	8a-\	.	8A-\	.	16cc\	.	16aa-\	.
.	.	.	.	.	.	.	16ff\JJ	.	.	.	.	.	.	.	16a-\JJ	.	16ff\JJ	.
=96	=96	=96	=96	=96	=96	=96	=96	=96	=96	=96	=96	=96	=96	=96	=96	=96	=96	=96
!	!	!	!	!	!	!	!	!	!	!	!	!	!LO:TX:t=P:problem=mixed beam	!	!	!	!	!
4B-\	ſan-	.	2B-\	ſan-	4g\	ſan-	4ee-\	ſan-	4e-\	.	4g\	.	8B-\L	.	4g/	.	4ee-\	.
.	.	.	.	.	.	.	.	.	.	.	.	.	8B-\	.	.	.	.	.
4BB-/	.	.	.	.	4f\	.	4dd\	.	4B-/	.	4f\	.	8BB-/	.	4f/	.	4dd\	.
.	.	.	.	.	.	.	.	.	.	.	.	.	8BB-/J	.	.	.	.	.
=97	=97	=97	=97	=97	=97	=97	=97	=97	=97	=97	=97	=97	=97	=97	=97	=97	=97	=97
!	!	!	!	!	!	!	!	!	!	!	!	!	!LO:LB:g=original	!	!	!	!	!
4E-\	-ctam	.	4B-\	-ctam	4g\	-ctam	4ee-\	-ctam	4G/	.	4e-\	.	4E-\	.	4g/	.	4ee-\	.
4r	.	.	4r	.	4r	.	4r	.	8e-\L	.	8g\L	.	4r	.	8ee-\L	.	8gg\L	.
.	.	.	.	.	.	.	.	.	8e-\J	.	8g\J	.	.	.	8ee-\J	.	8gg\J	.
=98	=98	=98	=98	=98	=98	=98	=98	=98	=98	=98	=98	=98	=98	=98	=98	=98	=98	=98
!LO:TX:a:t=4	!	!	!	!	!	!	!LO:TX:a:t=4	!	!	!	!	!	!LO:TX:t=P:problem=mixed beam	!	!	!	!	!
0r	.	.	0r	.	0r	.	0r	.	8.e-\L	.	8.g\L	.	8E-\L	.	8.ee-\L	.	8.gg\L	.
.	.	.	.	.	.	.	.	.	.	.	.	.	8EE-/J	.	.	.	.	.
.	.	.	.	.	.	.	.	.	16f\Jk	.	16a-\Jk	.	.	.	16ff\Jk	.	16aa-\Jk	.
.	.	.	.	.	.	.	.	.	8e-\L	.	8g\L	.	4r	.	8ee-\L	.	8gg\L	.
.	.	.	.	.	.	.	.	.	8f\J	.	8a-\J	.	.	.	8ff\J	.	8aa-\J	.
=99	=99	=99	=99	=99	=99	=99	=99	=99	=99	=99	=99	=99	=99	=99	=99	=99	=99	=99
!	!	!	!	!	!	!	!	!	!	!	!	!	!LO:TX:t=P:problem=mixed beam	!	!LO:TX:t=P:problem=mixed beam	!	!	!
.	.	.	.	.	.	.	.	.	8g\L	.	8b-\L	.	8E-\L	.	8gg\L	.	8bb-\L	.
.	.	.	.	.	.	.	.	.	8e-\J	.	8g\J	.	8EE-/J	.	8ee-\	.	8gg\	.
.	.	.	.	.	.	.	.	.	8G/L	.	8e-\L	.	4r	.	8g/	.	8ee-\	.
.	.	.	.	.	.	.	.	.	8G/J	.	8e-\J	.	.	.	8g/J	.	8ee-\J	.
=100	=100	=100	=100	=100	=100	=100	=100	=100	=100	=100	=100	=100	=100	=100	=100	=100	=100	=100
!	!	!	!	!	!	!	!	!	!LO:LB:g=original	!	!LO:LB:g=original	!	!	!	!	!	!	!
.	.	.	.	.	.	.	.	.	4G/	.	4e-\	.	8E-\L	.	4g/	.	4ee-\	.
.	.	.	.	.	.	.	.	.	.	.	.	.	8C\J	.	.	.	.	.
.	.	.	.	.	.	.	.	.	8B-/L	.	8f\L	.	8AA-/L	.	8a-/L	.	16ff\LL	.
.	.	.	.	.	.	.	.	.	.	.	.	.	.	.	.	.	16aa-\	.
.	.	.	.	.	.	.	.	.	8B-/J	.	8f\J	.	8BB-/J	.	8f/J	.	16dd\	.
.	.	.	.	.	.	.	.	.	.	.	.	.	.	.	.	.	16ff\JJ	.
=101	=101	=101	=101	=101	=101	=101	=101	=101	=101	=101	=101	=101	=101	=101	=101	=101	=101	=101
!	!	!	!	!	!	!	!	!	!LO:TX:t=P:problem=mixed beam	!	!	!	!LO:TX:t=P:problem=mixed beam	!	!	!	!	!
.	.	.	.	.	.	.	.	.	8e-\L	.	8g\L	.	8E-\L	.	8g/L	.	8ee-\L	.
.	.	.	.	.	.	.	.	.	8G/	.	8e-\J	.	8EE-/J	.	8g/	.	8ee-\	.
.	.	.	.	.	.	.	.	.	8G/J	.	8e-\	.	4EE-/	.	8g/J	.	8ee-\J	.
.	.	.	.	.	.	.	.	.	8r	.	8r	.	.	.	8r	.	8r	.
!	!	!	!	!	!	!	!	!	!	!	!LO:TX:t=Quam olim Vertatur.:b	!	!	!	!	!	!	!
=102||	=102||	=102||	=102||	=102||	=102||	=102||	=102||	=102||	=102||	=102||	=102||	=102||	=102||	=102||	=102||	=102||	=102||	=102||
*M3/4	*	*	*M3/4	*	*M3/4	*	*M3/4	*	*M3/4	*	*M3/4	*	*M3/4	*	*M3/4	*	*M3/4	*
*	*	*	*k[b-e-a-]	*	*	*	*	*	*	*	*	*	*	*	*	*	*k[b-e-a-]	*
!	!	!	!	!	!	!	!	!	!	!	!LO:TX:t=Qvam olim:rj	!	!	!	!	!	!	!
!	!	!	!	!	!	!	!	!	!LO:TX:t=Quam olim:rj	!	!LO:PB:g=original	!	!LO:TX:a:i:t=Quam Olim	!	!LO:TX:t=Quam olim:b	!	!LO:TX:a:B:t=Quam Olim ada&colon;	!
!LO:TX:a:B:t=ada&colon;	!	!	!LO:TX:a:B:t=andante:rj	!	!LO:TX:a:B:t=ada&colon;	!	!	!	!LO:TX:a:B:t=Andante	!	!LO:TX:a:B:t=andante	!LO:DY:a:t=p&colon;:rj	!LO:TX:b:B:t=ada&colon;	!	!LO:TX:a:B:t=Andante:rj	!	!	!
4E-\	Qam	.	2.B-\	Quam	2.g\	Quam	2.b-\	Quam	4E-/	.	4e-\	p	4EE-/	.	2.g/	.	2.b-\	.
!	!	!	!	!	!	!	!	!	!	!LO:DY:a:t=p.	!	!	!	!	!	!	!	!
4GG/	.	.	.	.	.	.	.	.	4E-/	p	4e-\	.	4GG/	.	.	.	.	.
4BB-/	.	.	.	.	.	.	.	.	4E-/	.	4e-\	.	4BB-/	.	.	.	.	.
=103	=103	=103	=103	=103	=103	=103	=103	=103	=103	=103	=103	=103	=103	=103	=103	=103	=103	=103
2E-\	o-	.	2B-\	O-	2e-\	O-	2g\	O-	2E-/	.	2e-\	.	4E-\	.	2e-/	.	2g/	.
.	.	.	.	.	.	.	.	.	.	.	.	.	4EE-/	.	.	.	.	.
4E-\	-lim	.	4A-\	-lim	4f\	-lim	4a-\	-lim	4r	.	4r	.	4r	.	4f/	.	4a-/	.
=104	=104	=104	=104	=104	=104	=104	=104	=104	=104	=104	=104	=104	=104	=104	=104	=104	=104	=104
!	!	!	!	!	!LO:LB:g=original	!	!	!	!	!	!	!	!	!	!	!	!	!
2E-\	a-	.	4B-\	A-	4g\	A-	4b-\	A-	2E-/	.	2e-\	.	4E-\	.	4g/	.	4b-\	.
.	.	.	4c\	.	4a-\	-bra-	4cc\	-bra-	.	.	.	.	4r	.	4a-/	.	4cc\	.
4BB-/	-bra-	.	4B-\	-bra-	4f\	.	4dd\	.	4r	.	4r	.	4BB-/	.	4f/	.	4dd\	.
=105	=105	=105	=105	=105	=105	=105	=105	=105	=105	=105	=105	=105	=105	=105	=105	=105	=105	=105
!	!	!	!	!	!	!	!	!	!	!	!	!	!	!	!LO:LB:g=original	!	!	!
4E-\	-che	.	4B-\	-che	4g\	-hae	4ee-\	-he	2E-/	.	2e-\	.	4E-\	.	2g/	.	2ee-\	.
4r	.	.	4r	.	4r	.	4r	.	.	.	.	.	4EE-/	.	.	.	.	.
4r	.	.	4r	.	4r	.	4r	.	4r	.	4r	.	4r	.	4r	.	8gg\L	.
.	.	.	.	.	.	.	.	.	.	.	.	.	.	.	.	.	8ee-\J	.
=106	=106	=106	=106	=106	=106	=106	=106	=106	=106	=106	=106	=106	=106	=106	=106	=106	=106	=106
4r	.	.	4r	.	4r	.	4r	.	4r	.	4r	.	4r	.	4r	.	4b-\	.
4G\	pro-	.	4B-\	pro-	4b-\	pro-	4b-\	pro-	4G/	.	4e-\	.	4G\	.	4b-\	.	4ee-\	.
4E-\	-mi-	.	4B-\	-mi-	4g\	-mi-	4ee-\	-mi-	4e-\	.	4g\	.	4E-\	.	4ee-\	.	4gg\	.
=107	=107	=107	=107	=107	=107	=107	=107	=107	=107	=107	=107	=107	=107	=107	=107	=107	=107	=107
2B-\	-ſis-	.	2.B-\	-ſis-	4g\	-ſis-	4ee-\	-ſis-	4e-\	.	4g\	.	2BB-/	.	4ee-\	.	4gg\	.
.	.	.	.	.	4f\	.	4dd\	.	4B-/	.	4f\	.	.	.	4dd\	.	4ff\	.
4BB-/	.	.	.	.	4a-\	.	4ff\	.	4f\	.	4a-\	.	4BB-/	.	4ff\	.	4aa-\	.
=108	=108	=108	=108	=108	=108	=108	=108	=108	=108	=108	=108	=108	=108	=108	=108	=108	=108	=108
4E-\	-ti	.	4B-\	-ti	4g\	-ti	4ee-\	-ti	4e-\	.	4g\	.	4E-\	.	8ff\L	.	8aa-\L	.
.	.	.	.	.	.	.	.	.	.	.	.	.	.	.	8ee-\J	.	8gg\	.
4r	.	.	4r	.	4r	.	4r	.	4r	.	4r	.	4r	.	4r	.	8ff\	.
.	.	.	.	.	.	.	.	.	.	.	.	.	.	.	.	.	8ee-\	.
4r	.	.	4r	.	4r	.	4r	.	4r	.	4r	.	4r	.	4r	.	8dd\	.
.	.	.	.	.	.	.	.	.	.	.	.	.	.	.	.	.	8cc\J	.
!	!	!	!	!	!	!	!	!	!	!	!	!	!LO:TX:t=Cito Verte:b	!	!	!	!	!
=109	=109	=109	=109	=109	=109	=109	=109	=109	=109	=109	=109	=109	=109	=109	=109	=109	=109	=109
!	!	!	!	!	!	!	!LO:LB:g=original	!	!	!	!	!	!LO:TX:t=P:problem=skan 0028.	!	!	!	!	!
!	!	!	!	!	!	!	!	!	!	!	!	!	!LO:PB:g=original	!	!	!	!	!
2.C/	pro-	.	2e-\	pro-	2f\	pro-	2an\	pro-	4f\	.	4f\	.	4C/	.	8e-/L	.	8b-\L	.
.	.	.	.	.	.	.	.	.	.	.	.	.	.	.	8f/	.	8a\J	.
.	.	.	.	.	.	.	.	.	4f\	.	4f\	.	4C/	.	8e-/	.	4a\	.
.	.	.	.	.	.	.	.	.	.	.	.	.	.	.	8f/	.	.	.
.	.	.	4c\	-mi-	4f\	-mi-	4a\	-mi-	4f\	.	4f\	.	4C/	.	8e-/	.	4a\	.
.	.	.	.	.	.	.	.	.	.	.	.	.	.	.	8f/J	.	.	.
=110	=110	=110	=110	=110	=110	=110	=110	=110	=110	=110	=110	=110	=110	=110	=110	=110	=110	=110
!	!	!	!	!	!	!	!	!	!	!	!LO:LB:g=original	!	!	!	!	!	!	!
2D\	-mi-	.	2B-\	-sis-	2f\	-ſis-	4.b-\	-ſis-	4f\	.	4f\	.	4D/	.	4f/	.	4.b-\	.
.	.	.	.	.	.	.	.	.	4f\	.	4f\	.	4D/	.	4f/	.	.	.
.	.	.	.	.	.	.	8cc\	-ti	.	.	.	.	.	.	.	.	8cc\	.
4D\	.	.	4B-\	-ti	4f\	-ti	4b-\	.	4f\	.	4f\	.	4D/	.	4f/	.	4b-\	.
=111	=111	=111	=111	=111	=111	=111	=111	=111	=111	=111	=111	=111	=111	=111	=111	=111	=111	=111
*	*	*	*	*ij	*	*ij	*	*ij	*	*	*	*	*	*	*	*	*	*
2An\	-ſiſ-	.	2c\	pro-	2f\	pro-	2cc\	pro-	4f\	.	4f\	.	4AAn/	.	4r	.	8dd\L	.
.	.	.	.	.	.	.	.	.	.	.	.	.	.	.	.	.	8cc\J	.
.	.	.	.	.	.	.	.	.	4f\	.	4f\	.	4Any\	.	4f/	.	4cc\	.
4A\	-ti	.	4c\	-mi-	4f\	-mi-	4cc\	-mi-	4f\	.	4f\	.	4F\	.	4f/	.	4cc\	.
=112	=112	=112	=112	=112	=112	=112	=112	=112	=112	=112	=112	=112	=112	=112	=112	=112	=112	=112
!LO:LB:g=original	!	!	!LO:LB:g=original	!	!	!	!	!	!	!	!	!	!	!	!	!	!	!
2B-\	pro-	.	2B-\	-ſis-	2f\	-ſis-	4.dd\	-ſis-	2.B-/	.	4f\	.	4B-\	.	2.f/	.	4.dd\	.
.	.	.	.	.	.	.	.	.	.	.	4f\	.	4BB-/	.	.	.	.	.
.	.	.	.	.	.	.	8ee-\	.	.	.	.	.	.	.	.	.	8ee-\	.
4BB-/	-mi-	.	4B-\	-ti	4f\	-ti	4dd\	-ti	.	.	4f\	.	4B-\	.	.	.	4dd\	.
*	*	*	*	*	*	*Xij	*	*Xij	*	*	*	*	*	*	*	*	*	*
=113	=113	=113	=113	=113	=113	=113	=113	=113	=113	=113	=113	=113	=113	=113	=113	=113	=113	=113
4BB-/	-ſis-	.	2.d\	pro-	2.f\	et	2.ff\	et	4r	.	4r	.	4BB-/	.	2.dd\	.	2.ff\	.
4D\	-ti	.	.	.	.	.	.	.	4B-/	.	4f\	.	4D/	.	.	.	.	.
4F\	.	.	.	.	.	.	.	.	4B-/	.	4f\	.	4F/	.	.	.	.	.
=114	=114	=114	=114	=114	=114	=114	=114	=114	=114	=114	=114	=114	=114	=114	=114	=114	=114	=114
!	!	!	!	!	!	!	!	!	!LO:LB:g=original	!	!	!	!	!	!	!	!LO:LB:g=original	!
4B-\	.	.	4.d\	-mi	4.f\	ſe-	4.ff\	ſe-	2B-/	.	2f\	.	4B-\	.	4.dd\	.	4.ff\	.
4BB-/	.	.	.	.	.	.	.	.	.	.	.	.	4BB-/	.	.	.	.	.
.	.	.	8c\	-ſis-	8f\	-mi-	8ee-\	-mi-	.	.	.	.	.	.	8cc\	.	8ee-\	.
4r	.	.	4B-\	-ti	4f\	-ni	4dd\	-ni	4r	.	4r	.	4r	.	4b-\	.	4dd\	.
*	*	*	*	*Xij	*	*	*	*	*	*	*	*	*	*	*	*	*	*
=115	=115	=115	=115	=115	=115	=115	=115	=115	=115	=115	=115	=115	=115	=115	=115	=115	=115	=115
4F\	et	.	4An\	et	2f\	e-	4cc\	E-	2f\	.	2f\	.	4F\	.	4a\	.	4cc\	.
4r	.	.	4B-\	.	.	.	4dd\	-ius	.	.	.	.	4FF/	.	4b-\	.	4dd\	.
4r	.	.	4c\	ſe-	4f\	-jus	4ee-\	in	4r	.	4r	.	4r	.	4cc\	.	4ee-\	.
=116	=116	=116	=116	=116	=116	=116	=116	=116	=116	=116	=116	=116	=116	=116	=116	=116	=116	=116
!	!	!	!	!	!	!	!	!	!	!	!	!	!	!	!LO:N:vis=4	!	!	!
2.F\	ſe-	.	4.c\	-mi-	2.f\	in	4.ee-\	ſe-	4r	.	4r	.	4F\	.	4.cc\	.	4.ee-\	.
.	.	.	.	.	.	.	.	.	4f\	.	4f\	.	4F\	.	.	.	.	.
.	.	.	8d\	.	.	.	8ff\	-cu-	.	.	.	.	.	.	8dd\	.	8ff\	.
.	.	.	4c\	-ni	.	.	4ee-\	-la	4f\	.	4f\	.	4An\	.	4cc\	.	4ee-\	.
=117	=117	=117	=117	=117	=117	=117	=117	=117	=117	=117	=117	=117	=117	=117	=117	=117	=117	=117
!	!	!	!	!	!LO:PB:g=original	!	!	!	!	!	!	!	!	!	!	!	!	!
2B-\	-mi-	.	4B-\	e-	4f\	ſe-	4dd\	ſe-	2B-/	.	2f\	.	4B-\	.	4b-\	.	4dd\	.
.	.	.	4c\	.	4e-\	.	4ee-\	-cu-	.	.	.	.	4BB-/	.	4cc\	.	4ee-\	.
!	!	!	!	!	!LO:SIC:v:s=4d\	!	!	!	!	!	!	!	!	!	!	!	!	!
4BB-/	.	.	4d\	.	4e-\	-cu-	4ff\	.	4r	.	4r	.	4r	.	4dd\	.	4ff\	.
=118	=118	=118	=118	=118	=118	=118	=118	=118	=118	=118	=118	=118	=118	=118	=118	=118	=118	=118
4BB-/	-ni	.	4d\	-jus	4d\	-la	4ff\	-la	4r	.	4r	.	4B-\	.	4.dd\	.	4.ff\	.
4r	.	.	4r	.	4r	.	4r	.	4B-/	.	4f\	.	4BB-/	.	.	.	.	.
.	.	.	.	.	.	.	.	.	.	.	.	.	.	.	8b-\L	.	8dd\L	.
4r	.	.	4r	.	4r	.	4r	.	4B-/	.	4f\	.	4B-\	.	8dd\	.	8ff\	.
.	.	.	.	.	.	.	.	.	.	.	.	.	.	.	8b-\J	.	8dd\J	.
=119	=119	=119	=119	=119	=119	=119	=119	=119	=119	=119	=119	=119	=119	=119	=119	=119	=119	=119
2.E-\	e-	.	2.c\	in	2.g\	in	4cc\	et	4r	.	4r	.	4r	.	4r	.	4cc\	.
.	.	.	.	.	.	.	4ee-\	ſe-	4e-\	.	4g\	.	4E-\	.	4g/	.	4ee-\	.
.	.	.	.	.	.	.	8cc\	-mi-	4e-\	.	4g\	.	4E-\	.	4e-/	.	4cc\	.
.	.	.	.	.	.	.	8cc\	-ni	.	.	.	.	.	.	.	.	.	.
=120	=120	=120	=120	=120	=120	=120	=120	=120	=120	=120	=120	=120	=120	=120	=120	=120	=120	=120
!	!	!	!	!	!	!	!LO:LB:g=original	!	!	!	!LO:TX:a:i:t=Solo.	!	!	!	!	!	!	!
2.F\	.	.	2d\	ſe-	2.f\	ſecu-	2b-\	e-	2.f\	.	2.f\	.	4F\	.	2d/	.	2b-\	.
.	.	.	.	.	.	.	.	.	.	.	.	.	4F\	.	.	.	.	.
.	.	.	4c\	-cu-	.	.	4an\	.	.	.	.	.	4FF/	.	4c/	.	4a\	.
=121	=121	=121	=121	=121	=121	=121	=121	=121	=121	=121	=121	=121	=121	=121	=121	=121	=121	=121
!	!	!	!	!	!	!	!	!	!LO:TX:a:i:t=Solo.	!	!	!	!	!	!	!	!	!
4BB-/	-jus	.	4d\	-la	4f\	-la	4b-\	-ius	4B-/	.	4f\	.	4BB-/	.	4d/	.	4b-\	.
4r	.	.	4r	.	4r	.	4r	.	4B-/	.	4f\	.	4r	.	4r	.	4r	.
4r	.	.	4r	.	4r	.	4r	.	4B-/	.	4f\	.	4r	.	4r	.	4r	.
=122	=122	=122	=122	=122	=122	=122	=122	=122	=122	=122	=122	=122	=122	=122	=122	=122	=122	=122
!LO:TX:a:t=5	!	!	!LO:TX:a:t=5	!	!LO:TX:a:t=5	!	!LO:TX:a:t=5	!	!	!	!	!	!	!	!LO:TX:a:t=5	!	!LO:TX:a:t=5	!
0.r	.	.	0.r	.	0.r	.	0.r	.	4B-/	.	4f\	.	4BB-/	.	0.r	.	0.r	.
.	.	.	.	.	.	.	.	.	4e-\	.	4g\	.	4r	.	.	.	.	.
.	.	.	.	.	.	.	.	.	4f\	.	4a-\	.	4r	.	.	.	.	.
=123	=123	=123	=123	=123	=123	=123	=123	=123	=123	=123	=123	=123	=123	=123	=123	=123	=123	=123
!	!	!	!	!	!	!	!	!	!	!	!LO:LB:g=original	!	!	!	!	!	!	!
.	.	.	.	.	.	.	.	.	4.f\	.	4.a-\	.	4BB-/	.	.	.	.	.
.	.	.	.	.	.	.	.	.	.	.	.	.	4B-\	.	.	.	.	.
.	.	.	.	.	.	.	.	.	8e-\	.	8g\	.	.	.	.	.	.	.
.	.	.	.	.	.	.	.	.	4B-/	.	4f\	.	4BB-/	.	.	.	.	.
=124	=124	=124	=124	=124	=124	=124	=124	=124	=124	=124	=124	=124	=124	=124	=124	=124	=124	=124
.	.	.	.	.	.	.	.	.	4e-\	.	4g\	.	4E-\	.	.	.	.	.
.	.	.	.	.	.	.	.	.	4f\	.	4a-\	.	4r	.	.	.	.	.
.	.	.	.	.	.	.	.	.	4g\	.	4b-\	.	4r	.	.	.	.	.
=125	=125	=125	=125	=125	=125	=125	=125	=125	=125	=125	=125	=125	=125	=125	=125	=125	=125	=125
.	.	.	.	.	.	.	.	.	2g\	.	2b-\	.	4E-\	.	.	.	.	.
.	.	.	.	.	.	.	.	.	.	.	.	.	4EE-/	.	.	.	.	.
.	.	.	.	.	.	.	.	.	8f\L	.	8a-\L	.	4E-\	.	.	.	.	.
.	.	.	.	.	.	.	.	.	8e-\J	.	8g\J	.	.	.	.	.	.	.
=126	=126	=126	=126	=126	=126	=126	=126	=126	=126	=126	=126	=126	=126	=126	=126	=126	=126	=126
2.r	.	.	2.r	.	2.r	.	2.r	.	4e-\	.	4g\	.	4BB-/	.	2.r	.	2.r	.
.	.	.	.	.	.	.	.	.	4B-/	.	4f\	.	8B-\L	.	.	.	.	.
.	.	.	.	.	.	.	.	.	.	.	.	.	8A-\	.	.	.	.	.
.	.	.	.	.	.	.	.	.	4r	.	4r	.	8G\	.	.	.	.	.
.	.	.	.	.	.	.	.	.	.	.	.	.	8F\J	.	.	.	.	.
=127	=127	=127	=127	=127	=127	=127	=127	=127	=127	=127	=127	=127	=127	=127	=127	=127	=127	=127
!LO:SIC:v:s=4E-\	!	!	!	!	!	!	!	!	!	!	!LO:TX:a:i:t=Tutti	!	!LO:LB:g=original	!	!LO:LB:g=original	!	!	!
4F\	in	.	2.B-\	in ſe-	2.g\	Quam	2.b-\	Quam	2.E-/	.	2.e-\	.	4E-\	.	2.g/	.	2.b-\	.
4GG/	ſe-	.	.	.	.	.	.	.	.	.	.	.	4GG/	.	.	.	.	.
4BB-/	cu-	.	.	.	.	.	.	.	.	.	.	.	4BB-/	.	.	.	.	.
=128	=128	=128	=128	=128	=128	=128	=128	=128	=128	=128	=128	=128	=128	=128	=128	=128	=128	=128
!	!	!	!	!	!	!	!	!	!LO:LB:g=original	!	!	!	!	!	!	!	!	!
2E-\	-la	.	2B-\	-cu-	2e-\	O-	2g\	O-	2E-/	.	2e-\	.	4E-\	.	2e-/	.	2g/	.
.	.	.	.	.	.	.	.	.	.	.	.	.	4EE-/	.	.	.	.	.
4E-\	in	.	4A-\	-la	4f\	-lim	4a-X\	-lim	4r	.	4r	.	4r	.	4f/	.	4a-/	.
=129	=129	=129	=129	=129	=129	=129	=129	=129	=129	=129	=129	=129	=129	=129	=129	=129	=129	=129
2E-\	ſe-	.	4B-\	&	4g\	A-	4b-\	A-	4r	.	4r	.	4E-\	.	4g/	.	4b-\	.
.	.	.	4c\	ſe-	4a-\	-bra-	4cc\	-bra-	4r	.	4r	.	4r	.	4a-/	.	4cc\	.
4BB-/	cu-	.	4B-\	-mi-	4f\	.	4dd\	.	4B-/	.	4f\	.	4BB-/	.	4f/	.	4dd\	.
=130	=130	=130	=130	=130	=130	=130	=130	=130	=130	=130	=130	=130	=130	=130	=130	=130	=130	=130
4E-\	-la	.	4B-\	-ni	4g\	-he	4ee-\	-he	4e-\	.	4g\	.	4E-\	.	2g/	.	2ee-\	.
4r	.	.	4r	.	4r	.	4r	.	4G/	.	4e-\	.	4EE-/	.	.	.	.	.
4r	.	.	4r	.	4r	.	4r	.	4r	.	4r	.	4r	.	4r	.	8gg\L	.
.	.	.	.	.	.	.	.	.	.	.	.	.	.	.	.	.	8ee-\J	.
=131	=131	=131	=131	=131	=131	=131	=131	=131	=131	=131	=131	=131	=131	=131	=131	=131	=131	=131
!LO:LB:g=original	!	!	!	!	!	!	!	!	!	!	!	!	!	!	!	!	!	!
4r	.	.	4r	.	4r	.	4r	.	4r	.	4r	.	4r	.	4r	.	4b-\	.
4G\	Quam	.	4B-\	e-	4b-\	pro-	4b-\	pro-	4G/	.	4e-\	.	4G\	.	4b-\	.	4ee-\	.
4E-\	o-	.	4B-\	-jus	4g\	mi-	4ee-\	mi-	4e-\	.	4g\	.	4E-\	.	4ee-\	.	4gg\	.
=132	=132	=132	=132	=132	=132	=132	=132	=132	=132	=132	=132	=132	=132	=132	=132	=132	=132	=132
!	!	!	!LO:LB:g=original	!	!	!	!	!	!	!	!	!	!	!	!	!	!LO:LB:g=original	!
2.BB-/	-lim	.	2.B-\	Qam	4g\	-ſis-	4ee-\	-ſis-	4e-\	.	4g\	.	4B-\	.	4ee-\	.	4gg\	.
.	.	.	.	.	4f\	-ti	4dd\	-ti	4B-/	.	4f\	.	4BB-/	.	4dd\	.	4ff\	.
.	.	.	.	.	4a-\	et	4ff\	.	4f\	.	4a-\	.	4B-\	.	4ff\	.	4aa-\	.
=133	=133	=133	=133	=133	=133	=133	=133	=133	=133	=133	=133	=133	=133	=133	=133	=133	=133	=133
!	!	!	!	!	!LO:LB:g=original	!	!	!	!	!	!	!	!	!	!	!	!	!
2E-\	a-	.	2B-\	o-	4a-\	ſe-	4ff\	et	4f\	.	4a-\	.	4E-\	.	4ff\	.	4aa-\	.
.	.	.	.	.	4g\	-mi-	4ee-\	.	4e-\	.	4g\	.	4EE-/	.	4ee-\	.	4gg\	.
!	!	!	!	!	!	!	!	!	!	!	!LO:SIC:v:s=4g\:t=?	!	!	!	!	!	!	!
4E-\	-bra-	.	4B-\	-lim	4e-\	-ni	4ee-\	.	4e-\	.	4f\	.	4GG/	.	4b-\	.	4ee-\	.
=134	=134	=134	=134	=134	=134	=134	=134	=134	=134	=134	=134	=134	=134	=134	=134	=134	=134	=134
2.A-\	-che	.	2.c\	ab-	2e-\	e-	2.cc\	ſemi-	2e-\	.	2e-\	.	4AA-/	.	2cc\	.	2cc\	.
.	.	.	.	.	.	.	.	.	.	.	.	.	4A-\	.	.	.	.	.
.	.	.	.	.	4a-\	-jus	.	.	4f\	.	4a-\	.	4A-\	.	8cc\L	.	8aa-\L	.
.	.	.	.	.	.	.	.	.	.	.	.	.	.	.	8a-\J	.	8ff\J	.
=135	=135	=135	=135	=135	=135	=135	=135	=135	=135	=135	=135	=135	=135	=135	=135	=135	=135	=135
2B-\	pro-	.	2B-\	-ra-	2g\	E-	2ee-\	-ni	4e-\	.	4g\	.	4B-\	.	4g/	.	2.ee-\	.
.	.	.	.	.	.	.	.	.	4e-\	.	4g\	.	4B-\	.	4g/	.	.	.
4B-\	-mi-	.	4B-\	-che	4g\	.	4ee-\	e-	4e-\	.	4g\	.	4B-\	.	4g/	.	.	.
=136	=136	=136	=136	=136	=136	=136	=136	=136	=136	=136	=136	=136	=136	=136	=136	=136	=136	=136
!	!	!	!	!	!	!	!	!	!	!	!LO:LB:g=original	!	!	!	!	!	!	!
2.BB-/	-ſisti	.	2.B-\	pro mi-	2.f\	.	2.dd\	-ius	4B-/	.	4f\	.	4BB-/	.	4f/	.	2.dd\	.
.	.	.	.	.	.	.	.	.	4B-/	.	4f\	.	4BB-/	.	4f/	.	.	.
.	.	.	.	.	.	.	.	.	4B-/	.	4f\	.	4BB-/	.	4f/	.	.	.
=137	=137	=137	=137	=137	=137	=137	=137	=137	=137	=137	=137	=137	=137	=137	=137	=137	=137	=137
!	!	!	!	!	!	!	!LO:LB:g=original	!	!	!	!	!	!	!	!	!	!	!
4E-\	e-	.	4B-\	-ſis-	4g\	-jus	4ee-\	.	4e-\	.	4g\	.	4E-\	.	4g/	.	4ee-\	.
4r	.	.	4r	.	4r	.	4r	.	4r	.	4r	.	4r	.	4r	.	4r	.
!	!	!	!	!	!	!	!	!	!LO:TX:a:i:t=Tardiſsime.	!	!	!	!LO:TX:a:i:t=Tardiſsime	!	!	!	!LO:TX:a:i:t=Tardiſsime	!
4E-\	-jus	.	4E-/	-ti	4g\	in	4ee-\	in	4E-/	.	4e-\	.	4EE-/	.	4g/	.	4ee-\	.
=138	=138	=138	=138	=138	=138	=138	=138	=138	=138	=138	=138	=138	=138	=138	=138	=138	=138	=138
!	!	!	!	!	!	!	!	!	!	!	!LO:TX:a:i:t=Tardiſsime	!	!	!	!LO:TX:a:i:t=Tardiſsime	!	!	!
2E-\	in	.	2E-/	in	2a-\	ſe-	2cc\	Se-	2.E-/	.	2.e-\	.	2.EE-/	.	2a-\	.	2dd\	.
4E-\	ſe-	.	4E-/	ſe-	4a-\	-cu-	4cc\	-cu-	.	.	.	.	.	.	4a-\	.	4cc\	.
=139	=139	=139	=139	=139	=139	=139	=139	=139	=139	=139	=139	=139	=139	=139	=139	=139	=139	=139
2E-;\	-cula. -	.	2.E-;/	-cula. -	2.g;\	-la-	2.b-;\	-la	2.E-/	.	2.e-\	.	2.EE-;/	.	2g;/	.	2.b-;\	.
4r	.	.	.	.	.	.	.	.	.	.	.	.	.	.	4r	.	.	.
==	==	==	==	==	==	==	==	==	==	==	==	==	==	==	==	==	==	==
*-	*-	*-	*-	*-	*-	*-	*-	*-	*-	*-	*-	*-	*-	*-	*-	*-	*-	*-
!!!system-decoration: [(s1,s2,s3)][(s4,s5)][(s6,s7,s8,s9)]
!!!ENC: Tomasz Grochalski
!!!END: 2020-09-22
!!!ENC: Krzysztof Stępień
!!!END: 2022-02-02
